!!!!SEGMENT: pl-cz--iii-689--009_volckmer-augustin--stabat-mater-kiedy-ciallo.krn
!!!cenid: 17xx:1228
!!!COM: Volckmer, Augustin
!!!COM-rismid: pe30020656
!!!CDT: 1755-~1820
!!!CNT:
!!!OPR: Stabat Mater
!!!OTL: Kiedy ciało
!!!OMV: 009
!!!PDT:
!!!AGN: Sacred
!!!SMS-siglum: PL-CZ
!!!SMS-shelfmark: III-689
!!!SMS-shelfwork: 001-009 M
!!!SMS-variant:
!!!SMS-altvar:
!!!NIFC-rismid: 300001407
!!!URL-scan: http://ozytorium.nifc.pl/skany/pl-cz-nut--iii-689
!!!ONB-nifc: UWAGA: części Stabat Mater: Stała Matka Boleściwa, O jak smutna i strapiona, Widziała Kochanka swego, Święta matko, Pragnę stać pod krzyżem, Niech gorzką śmierć, Daj niech rany, Ze wszech Panien, Kiedy ciało
!!!AIN: 1 alto 1 basso 2 cor 1 fagot 2 flt 2 oboe 1 organ 1 soprn 1 tenor 1 viola 2 violn
!!!key: E-
**kern	**dynam	**kern	**dynam	**kern	**dynam	**kern	**dynam	**kern	**text	**kern	**text	**kern	**text	**dynam	**kern	**text	**kern	**dynam	**kern	**dynam	**kern	**dynam	**kern	**dynam	**kern	**dynam	**kern	**dynam	**kern
*	*	*group4	*	*group4	*	*group4	*	*group3	*	*group3	*	*group3	*	*	*group3	*	*group2	*	*group2	*	*group1	*	*group1	*	*group1	*	*group1	*	*group1
*part15	*part15	*part14	*part14	*part13	*part13	*part12	*part12	*part11	*part11	*part10	*part10	*part9	*part9	*part9	*part8	*part8	*part7	*part7	*part6	*part6	*part5	*part5	*part4	*part4	*part3	*part3	*part2	*part2	*part1
*staff15	*	*staff14	*	*staff13	*	*staff12	*	*staff11	*staff11	*staff10	*staff10	*staff9	*staff9	*	*staff8	*staff8	*staff7	*	*staff6	*	*staff5	*	*staff4	*	*staff3	*	*staff2	*	*staff1
*I"Fundamento	*	*I"Alto Viola Oblg: per expreſsivo.	*	*I"Violino Secundo.	*	*I"Violino Primo.	*	*I"Baſso.	*	*I"Tenore	*	*I"Alto.	*	*	*I"Canto.	*	*I"Cors de Caſse Secondo in Dis.	*	*I"Cors de Caſse Primo in Dis.	*	*I"Fagotto	*	*I"Haubois Secunda.	*	*I"Haubois Primo	*	*I"Flauto Secondo.	*	*I"Flauto Primo.
*I'bc	*	*I'vla	*	*I'vl 2	*	*I'vl 1	*	*I'B	*	*I'T	*	*I'A	*	*	*I'S	*	*I'cor 2 in E|b	*	*I'cor 1 in E|b	*	*I'fag	*	*I'ob 2	*	*I'ob 1	*	*I'fl 2	*	*I'fl 1
*Iorgan	*	*Iviola	*	*Ivioln	*	*Ivioln	*	*Ibasso	*	*Itenor	*	*Ialto	*	*	*Isoprn	*	*Icor	*	*Icor	*	*Ifagot	*	*Ioboe	*	*Ioboe	*	*Iflt	*	*Iflt
*ICklav	*	*ICstr	*	*ICstr	*	*ICstr	*	*ICvox	*	*ICvox	*	*ICvox	*	*	*ICvox	*	*ICbras	*	*ICbras	*	*ICww	*	*ICww	*	*ICww	*	*ICww	*	*ICww
*	*	*	*	*	*	*	*	*IGcoro	*	*IGcoro	*	*IGcoro	*	*	*IGcoro	*	*	*	*	*	*	*	*	*	*	*	*	*	*
*clefC1	*	*clefC3	*	*clefG2	*	*clefG2	*	*clefF4	*	*clefC4	*	*clefC3	*	*	*clefC1	*	*clefG2	*	*clefG2	*	*clefF4	*	*clefG2	*	*clefG2	*	*clefG2	*	*clefG2
*	*	*	*	*	*	*	*	*	*	*	*	*	*	*	*	*	*ITrd5c9	*	*ITrd5c9	*	*	*	*	*	*	*	*	*	*
*k[b-e-a-]	*	*k[a-e-b-]	*	*k[b-e-a-]	*	*k[e-b-a-]	*	*k[a-b-e-]	*	*k[b-e-a-]	*	*k[a-e-b-]	*	*	*k[b-e-a-]	*	*k[b-e-a-]	*	*k[b-e-a-]	*	*k[e-b-a-]	*	*k[b-e-a-]	*	*k[b-e-a-]	*	*k[b-a-e-]	*	*k[b-e-a-]
*E-:	*	*E-:	*	*E-:	*	*E-:	*	*E-:	*	*E-:	*	*E-:	*	*	*E-:	*	*E-:	*	*E-:	*	*E-:	*	*E-:	*	*E-:	*	*E-:	*	*E-:
*M2/2	*	*M2/2	*	*M2/2	*	*M2/2	*	*M2/2	*	*M2/2	*	*M2/2	*	*	*M2/2	*	*M2/2	*	*M2/2	*	*M2/2	*	*M2/2	*	*M2/2	*	*M2/2	*	*M2/2
*met(c|)	*	*met(2)	*	*met(c|)	*	*met(2)	*	*met(2)	*	*met(2)	*	*met(2)	*	*	*met(2)	*	*met(2)	*	*met(2)	*	*met(2)	*	*met(2)	*	*met(2)	*	*met(2)	*	*met(2)
=1	=1	=1	=1	=1	=1	=1	=1	=1	=1	=1	=1	=1	=1	=1	=1	=1	=1	=1	=1	=1	=1	=1	=1	=1	=1	=1	=1	=1	=1
*^	*	*	*	*	*	*	*	*	*	*	*	*	*	*	*	*	*	*	*	*	*	*	*	*	*	*	*	*	*
*	*	*	*	*	*	*	*2\right	*	*	*	*	*	*	*	*	*	*	*	*	*	*	*	*	*	*	*	*	*	*	*
!	!	!	!	!	!	!	!	!	!	!	!	!	!	!	!	!	!	!LO:TX:a:i:t=in Dis Tutti	!	!LO:TX:a:i:t=in Dis	!	!	!	!	!	!	!	!	!	!
!	!	!	!	!	!	!	!	!	!LO:TX:a:t=8	!	!LO:TX:a:t=8	!	!	!	!	!	!	!LO:TX:a:t=8	!	!LO:TX:a:t=4	!	!LO:TX:a:t=8	!	!LO:TX:a:t=8.	!	!LO:TX:a:t=8	!	!LO:TX:a:i:t=Tutti	!	!LO:TX:a:t=8
!LO:TX:a:Bi:t=Allabreve	!	!	!LO:TX:a:Bi:t=Allabreve	!LO:TX:a:Bi:t=Allabreve	!LO:TX:a:Bi:t=alabreve	!	!LO:TX:a:Bi:t=Allabreve	!LO:DY:rj	!LO:TX:a:Bi:t=allabreve	!	!LO:TX:a:Bi:t=allabreve	!	!LO:TX:a:Bi:t=Allabreve	!	!	!LO:TX:a:Bi:t=Allabreve	!	!LO:TX:a:Bi:t=Allabreve	!	!LO:TX:a:Bi:t=Allabreve	!	!LO:TX:a:Bi:t=Allabreve	!	!LO:TX:a:Bi:t=Allabreve	!	!LO:TX:a:Bi:t=allabreve	!	!LO:TX:a:Bi:t=Allabreve	!	!LO:TX:a:Bi:t=Allabreve
2b-/	4r	.	2E-/	.	4r	p	2b-\	p	00r	.	00r	.	(1b-	Kie-	.	1b-	Kie-	00r	.	00r	.	00r	.	00r	.	00r	.	00r	.	00r
.	4e-\	.	.	.	4e-/	.	.	.	.	.	.	.	.	.	.	.	.	.	.	.	.	.	.	.	.	.	.	.	.	.
2b-/	4g\	.	2E-/	.	4g/	.	2b-\	.	.	.	.	.	.	.	.	.	.	.	.	.	.	.	.	.	.	.	.	.	.	.
.	4f\	.	.	.	4f/	.	.	.	.	.	.	.	.	.	.	.	.	.	.	.	.	.	.	.	.	.	.	.	.	.
=2	=2	=2	=2	=2	=2	=2	=2	=2	=2	=2	=2	=2	=2	=2	=2	=2	=2	=2	=2	=2	=2	=2	=2	=2	=2	=2	=2	=2	=2	=2
.	.	.	.	.	.	.	16qqa-/	.	.	.	.	.	16qqg/)	.	.	8qqa-/	.	.	.	.	.	.	.	.	.	.	.	.	.	.
*	*	*	*	*	*	*	*	*	*	*	*	*	*2\right	*	*	*2\right	*	*	*	*	*	*	*	*	*	*	*	*	*	*
2g/	4e-\	.	2G/	.	4e-/	.	2g/	.	.	.	.	.	2g\	.	.	2g\	.	.	.	.	.	.	.	.	.	.	.	.	.	.
.	4g\	.	.	.	4g/	.	.	.	.	.	.	.	.	.	.	.	.	.	.	.	.	.	.	.	.	.	.	.	.	.
.	.	.	.	.	.	.	16qqf/	.	.	.	.	.	16qqe-/	.	.	8qqf/	.	.	.	.	.	.	.	.	.	.	.	.	.	.
2e-/	4G\	.	2E-/	.	4G/	.	2e-/	.	.	.	.	.	2e-\	-dy	.	2e-/	-dy	.	.	.	.	.	.	.	.	.	.	.	.	.
.	4B-\	.	.	.	4B-/	.	.	.	.	.	.	.	.	.	.	.	.	.	.	.	.	.	.	.	.	.	.	.	.	.
=3	=3	=3	=3	=3	=3	=3	=3	=3	=3	=3	=3	=3	=3	=3	=3	=3	=3	=3	=3	=3	=3	=3	=3	=3	=3	=3	=3	=3	=3	=3
2cc/	4A-\	.	2A-/	.	4A-/	.	2cc\	.	.	.	.	.	(2cc\	Cia-	.	2cc\	cia-	.	.	.	.	.	.	.	.	.	.	.	.	.
.	4a-\	.	.	.	4a-/	.	.	.	.	.	.	.	.	.	.	.	.	.	.	.	.	.	.	.	.	.	.	.	.	.
4a-/	4f\	.	2F/	.	4f/	.	4a-/	.	.	.	.	.	4a-\	.	.	4a-\	.	.	.	.	.	.	.	.	.	.	.	.	.	.
4g/	4e-\	.	.	.	4e-/	.	4g/	.	.	.	.	.	4g\)	.	.	4g\	.	.	.	.	.	.	.	.	.	.	.	.	.	.
!LO:LB:g=original	!	!	!	!	!	!	!LO:LB:g=original	!	!	!	!	!	!	!	!	!	!	!	!	!	!	!	!	!	!	!	!	!	!	!
=4	=4	=4	=4	=4	=4	=4	=4	=4	=4	=4	=4	=4	=4	=4	=4	=4	=4	=4	=4	=4	=4	=4	=4	=4	=4	=4	=4	=4	=4	=4
2f/	4d\	.	2B-/	.	4d/	.	2f/	.	.	.	.	.	2f\	-ło	.	2f/	-ło	.	.	.	.	.	.	.	.	.	.	.	.	.
.	4B-\	.	.	.	4B-/	.	.	.	.	.	.	.	.	.	.	.	.	.	.	.	.	.	.	.	.	.	.	.	.	.
2r	4f\	.	2r	.	4f/	.	2r	.	.	.	.	.	2r	.	.	2r	.	.	.	.	.	.	.	.	.	.	.	.	.	.
.	4d\	.	.	.	4d/	.	.	.	.	.	.	.	.	.	.	.	.	.	.	.	.	.	.	.	.	.	.	.	.	.
!	!	!	!	!	!	!	!	!	!	!	!	!	!	!	!	!LO:LB:g=original	!	!	!	!	!	!	!	!	!	!	!	!	!	!
=5	=5	=5	=5	=5	=5	=5	=5	=5	=5	=5	=5	=5	=5	=5	=5	=5	=5	=5	=5	=5	=5	=5	=5	=5	=5	=5	=5	=5	=5	=5
2a-/	4B-\	.	2B-/	.	4B-/	.	2a-/	.	00r	.	00r	.	2a-\	Kie-	.	2a-\	Kie-	00r	.	00r	.	00r	.	00r	.	00r	.	00r	.	00r
.	4f\	.	.	.	4f/	.	.	.	.	.	.	.	.	.	.	.	.	.	.	.	.	.	.	.	.	.	.	.	.	.
2a-/	4d\	.	2B-/	.	4d/	.	2a-/	.	.	.	.	.	2a-\	-dy	.	2a-\	-dy	.	.	.	.	.	.	.	.	.	.	.	.	.
.	4B-\	.	.	.	4B-/	.	.	.	.	.	.	.	.	.	.	.	.	.	.	.	.	.	.	.	.	.	.	.	.	.
=6	=6	=6	=6	=6	=6	=6	=6	=6	=6	=6	=6	=6	=6	=6	=6	=6	=6	=6	=6	=6	=6	=6	=6	=6	=6	=6	=6	=6	=6	=6
*2\right	*	*	*2\right	*	*	*	*	*	*	*	*	*	*	*	*	*	*	*	*	*	*	*	*	*	*	*	*	*	*	*
4g/	2e-\	.	2e-\	.	2e-/	.	(4g/	.	.	.	.	.	(4g\	Cia-	.	2g\	cia-	.	.	.	.	.	.	.	.	.	.	.	.	.
4b-/	.	.	.	.	.	.	4b-/	.	.	.	.	.	4b-\)	.	.	.	.	.	.	.	.	.	.	.	.	.	.	.	.	.
4e-/	2G\	.	2G/	.	4G/	.	4e-/	.	.	.	.	.	(4e-\	.	.	2ee-\	-ło	.	.	.	.	.	.	.	.	.	.	.	.	.
4g/	.	.	.	.	4B-/	.	4g/)	.	.	.	.	.	4g\)	.	.	.	.	.	.	.	.	.	.	.	.	.	.	.	.	.
=7	=7	=7	=7	=7	=7	=7	=7	=7	=7	=7	=7	=7	=7	=7	=7	=7	=7	=7	=7	=7	=7	=7	=7	=7	=7	=7	=7	=7	=7	=7
4f/	2A-\	.	2A-/	.	4A-/	.	(4f/	.	.	.	.	.	(4f\	.	.	2ee-\	poi-	.	.	.	.	.	.	.	.	.	.	.	.	.
4a-/	.	.	.	.	4c/	.	4a-/)	.	.	.	.	.	4a-\)	.	.	.	.	.	.	.	.	.	.	.	.	.	.	.	.	.
4d/	4A-\	.	2B-/	.	4A-/	.	(4d/	.	.	.	.	.	(4d\	.	.	2dd\	.	.	.	.	.	.	.	.	.	.	.	.	.	.
4f/	4B-\	.	.	.	4B-/	.	4f/)	.	.	.	.	.	4f\)	.	.	.	.	.	.	.	.	.	.	.	.	.	.	.	.	.
=8	=8	=8	=8	=8	=8	=8	=8	=8	=8	=8	=8	=8	=8	=8	=8	=8	=8	=8	=8	=8	=8	=8	=8	=8	=8	=8	=8	=8	=8	=8
2e-/	2G\	.	2e-\	.	2G/	.	2e-/	.	.	.	.	.	2e-\	-ło	.	2ee-\	-dzie	.	.	.	.	.	.	.	.	.	.	.	.	.
2r	2ryy	.	2r	.	2r	.	2r	.	.	.	.	.	2r	.	.	2r	.	.	.	.	.	.	.	.	.	.	.	.	.	.
*v	*v	*	*	*	*	*	*	*	*	*	*	*	*	*	*	*	*	*	*	*	*	*	*	*	*	*	*	*	*	*
!	!	!	!	!LO:LB:g=original	!	!	!	!	!	!	!	!LO:LB:g=original	!	!	!	!	!	!	!	!	!	!	!	!	!	!	!	!	!
=9	=9	=9	=9	=9	=9	=9	=9	=9	=9	=9	=9	=9	=9	=9	=9	=9	=9	=9	=9	=9	=9	=9	=9	=9	=9	=9	=9	=9	=9
*clefF4	*	*	*	*	*	*	*	*	*	*	*	*	*	*	*	*	*	*	*	*	*	*	*	*	*	*	*2\right	*	*2\right
!LO:TX:a:i:t=Tutti	!	!	!	!	!LO:DY:a:rj	!	!LO:DY:a	!	!	!	!	!	!	!	!LO:TX:t=P:problem:takty nr 9-16 zapisane repetycją	!	!	!	!	!	!	!	!	!	!	!	!	!	!
4r	.	2g\	.	8G/L	f	2b-\	f	1E-	Kie-	1B-	Kie-	1g	poi-	.	1b-yy	Kie-	2E-/	.	2B-/	.	4r	.	1g	.	1ee-	.	2ee-\	.	2bb-\
.	.	.	.	8e-/	.	.	.	.	.	.	.	.	.	.	.	.	.	.	.	.	.	.	.	.	.	.	.	.	.
4E-\	.	.	.	8g/	.	.	.	.	.	.	.	.	.	.	.	.	.	.	.	.	4E-\	.	.	.	.	.	.	.	.
.	.	.	.	8b-/J	.	.	.	.	.	.	.	.	.	.	.	.	.	.	.	.	.	.	.	.	.	.	.	.	.
4G\	.	2g\	.	8a-/L	.	2b-\	.	.	.	.	.	.	.	.	.	.	2r	.	2r	.	4G\	.	.	.	.	.	2ee-\	.	2bb-\
.	.	.	.	8g/	.	.	.	.	.	.	.	.	.	.	.	.	.	.	.	.	.	.	.	.	.	.	.	.	.
4E-\	.	.	.	8f/	.	.	.	.	.	.	.	.	.	.	.	.	.	.	.	.	4E-\	.	.	.	.	.	.	.	.
.	.	.	.	8e-/J	.	.	.	.	.	.	.	.	.	.	.	.	.	.	.	.	.	.	.	.	.	.	.	.	.
=10	=10	=10	=10	=10	=10	=10	=10	=10	=10	=10	=10	=10	=10	=10	=10	=10	=10	=10	=10	=10	=10	=10	=10	=10	=10	=10	=10	=10	=10
.	.	.	.	.	.	8qqa-/	.	.	.	.	.	.	.	.	8qqa-/yy	.	.	.	.	.	.	.	.	.	.	.	.	.	8qaa-/
*	*	*	*	*	*	*	*	*2\right	*	*2\right	*	*	*	*	*	*	*2\right	*	*2\right	*	*	*	*	*	*2\right	*	*	*	*
4E-\	.	2B-/	.	8G/L	.	2g/	.	2G\	.	2r	.	2b-\	.	.	2g\yy	.	2e-\	.	2g\	.	4E-\	.	2b-/	.	2gg\	.	1ee-	.	2gg\
.	.	.	.	8e-/	.	.	.	.	.	.	.	.	.	.	.	.	.	.	.	.	.	.	.	.	.	.	.	.	.
4G\	.	.	.	8g/	.	.	.	.	.	.	.	.	.	.	.	.	.	.	.	.	4G\	.	.	.	.	.	.	.	.
.	.	.	.	8e-/J	.	.	.	.	.	.	.	.	.	.	.	.	.	.	.	.	.	.	.	.	.	.	.	.	.
.	.	.	.	.	.	8qqf/	.	.	.	.	.	.	.	.	8qqf/yy	.	.	.	.	.	.	.	.	.	.	.	.	.	8qqff/
4GG/	.	2G/	.	8B-/L	.	2e-/	.	2E-\	-dy	2B-\	-dy	2g\	-dzie	.	2e-/yy	-dy	2G/	.	2e-\	.	4GG/	.	2g/	.	2ee-\	.	.	.	2ee-\
.	.	.	.	8e-/	.	.	.	.	.	.	.	.	.	.	.	.	.	.	.	.	.	.	.	.	.	.	.	.	.
4BB-/	.	.	.	8A-/	.	.	.	.	.	.	.	.	.	.	.	.	.	.	.	.	4BB-/	.	.	.	.	.	.	.	.
.	.	.	.	8B-/J	.	.	.	.	.	.	.	.	.	.	.	.	.	.	.	.	.	.	.	.	.	.	.	.	.
!	!	!	!	!	!	!	!	!LO:LB:g=original	!	!	!	!	!	!	!	!	!	!	!	!	!	!	!	!	!	!	!	!	!
=11	=11	=11	=11	=11	=11	=11	=11	=11	=11	=11	=11	=11	=11	=11	=11	=11	=11	=11	=11	=11	=11	=11	=11	=11	=11	=11	=11	=11	=11
4AA-/	.	2e-\	.	8A-/L	.	2cc\	.	2A-\	Cia-	2e-\	cia-	2a-\	w_zie-	.	2cc\yy	cia-	2f\	.	2f\	.	4AA-/	.	2a-/	.	2cc\	.	2aa-\	.	2ccc\
.	.	.	.	8e-/	.	.	.	.	.	.	.	.	.	.	.	.	.	.	.	.	.	.	.	.	.	.	.	.	.
4A-\	.	.	.	8a-/	.	.	.	.	.	.	.	.	.	.	.	.	.	.	.	.	4A-\	.	.	.	.	.	.	.	.
.	.	.	.	8g/J	.	.	.	.	.	.	.	.	.	.	.	.	.	.	.	.	.	.	.	.	.	.	.	.	.
4F\	.	4f\	.	8f/L	.	4a-/	.	2F\	.	2c\	.	4f\	.	.	4a-\yy	.	2f\	.	2f\	.	4F\	.	2a-/	.	2ff\	.	4ff\	.	4aa-\
.	.	.	.	8d/	.	.	.	.	.	.	.	.	.	.	.	.	.	.	.	.	.	.	.	.	.	.	.	.	.
4E-\	.	4e-\	.	8e-/	.	4g/	.	.	.	.	.	4e-\	.	.	4g\yy	.	.	.	.	.	4E-\	.	.	.	.	.	4ee-\	.	4gg\
.	.	.	.	8G/J	.	.	.	.	.	.	.	.	.	.	.	.	.	.	.	.	.	.	.	.	.	.	.	.	.
=12	=12	=12	=12	=12	=12	=12	=12	=12	=12	=12	=12	=12	=12	=12	=12	=12	=12	=12	=12	=12	=12	=12	=12	=12	=12	=12	=12	=12	=12
.	.	.	.	.	.	.	.	.	.	.	.	.	.	.	.	.	.	.	.	.	.	.	8qqg/	.	8qqee-/	.	.	.	.
4D/	.	2d\	.	8B-/L	.	2f 2B-/	.	2B-\	-ło	2B-\	-ło	2d\	-mie	.	2f/yy	-ło	2B-/	.	2f\	.	4D/	.	2f/	.	2dd\	.	2dd\	.	2ff\
.	.	.	.	8d/	.	.	.	.	.	.	.	.	.	.	.	.	.	.	.	.	.	.	.	.	.	.	.	.	.
4BB-/	.	.	.	8f/	.	.	.	.	.	.	.	.	.	.	.	.	.	.	.	.	4BB-/	.	.	.	.	.	.	.	.
.	.	.	.	8d/J	.	.	.	.	.	.	.	.	.	.	.	.	.	.	.	.	.	.	.	.	.	.	.	.	.
4F/	.	2r	.	8b-/L	.	2r	.	2r	.	2r	.	2r	.	.	2ryy	.	2r	.	2r	.	4F\	.	2r	.	2r	.	2r	.	2r
.	.	.	.	8d/	.	.	.	.	.	.	.	.	.	.	.	.	.	.	.	.	.	.	.	.	.	.	.	.	.
4D/	.	.	.	8f/	.	.	.	.	.	.	.	.	.	.	.	.	.	.	.	.	4D\	.	.	.	.	.	.	.	.
.	.	.	.	8d/J	.	.	.	.	.	.	.	.	.	.	.	.	.	.	.	.	.	.	.	.	.	.	.	.	.
!	!	!LO:LB:g=original	!	!	!	!	!	!	!	!	!	!	!	!	!	!	!	!	!	!	!	!	!	!	!	!	!	!	!
=13	=13	=13	=13	=13	=13	=13	=13	=13	=13	=13	=13	=13	=13	=13	=13	=13	=13	=13	=13	=13	=13	=13	=13	=13	=13	=13	=13	=13	=13
4BB-/	.	2f\	.	8B-/L	.	2a-/	.	2BB-/	Kie-	2B-\	Kie-	2f\	Kie-	.	2a-\yy	Kie-	2B-/	.	2f\	.	4BB-/	.	2a-/	.	2ff\	.	2ff\	.	2aa-\
.	.	.	.	8f/	.	.	.	.	.	.	.	.	.	.	.	.	.	.	.	.	.	.	.	.	.	.	.	.	.
4F/	.	.	.	8d/	.	.	.	.	.	.	.	.	.	.	.	.	.	.	.	.	4F\	.	.	.	.	.	.	.	.
.	.	.	.	8B-/J	.	.	.	.	.	.	.	.	.	.	.	.	.	.	.	.	.	.	.	.	.	.	.	.	.
4D/	.	2f\	.	8An/L	.	2b-/	.	2D\	-dy	2B-\	-dy	2f\	-dy	.	2a-\yy	-dy	2B-/	.	2f\	.	4D\	.	2a-/	.	2ff\	.	2ff\	.	2aa-\
.	.	.	.	8B-/	.	.	.	.	.	.	.	.	.	.	.	.	.	.	.	.	.	.	.	.	.	.	.	.	.
4BB-/	.	.	.	8d/	.	.	.	.	.	.	.	.	.	.	.	.	.	.	.	.	4BB-\	.	.	.	.	.	.	.	.
.	.	.	.	8B-/J	.	.	.	.	.	.	.	.	.	.	.	.	.	.	.	.	.	.	.	.	.	.	.	.	.
!	!	!	!	!	!	!LO:LB:g=original	!	!	!	!	!	!	!	!	!	!	!	!	!	!	!LO:LB:g=original	!	!	!	!	!	!	!	!
=14	=14	=14	=14	=14	=14	=14	=14	=14	=14	=14	=14	=14	=14	=14	=14	=14	=14	=14	=14	=14	=14	=14	=14	=14	=14	=14	=14	=14	=14
*	*	*	*	*	*	*	*	*	*	*	*	*	*	*	*	*	*	*	*	*	*2\right	*	*	*	*	*	*	*	*
2E-\	.	2e-\	.	8e-/L	.	4g/	.	2E-\	Cia-	2B-\	cia-	2e-\	poi-	.	2g\yy	cia-	2G/	.	2e-\	.	2E-\	.	2g/	.	2ee-\	.	2ee-\	.	4gg\
.	.	.	.	8G/	.	.	.	.	.	.	.	.	.	.	.	.	.	.	.	.	.	.	.	.	.	.	.	.	.
.	.	.	.	8B-/	.	4b-/	.	.	.	.	.	.	.	.	.	.	.	.	.	.	.	.	.	.	.	.	.	.	4bb-\
.	.	.	.	8e-/J	.	.	.	.	.	.	.	.	.	.	.	.	.	.	.	.	.	.	.	.	.	.	.	.	.
*	*	*	*	*	*	*	*	*	*	*	*	*	*	*	*	*	*	*	*	*	*	*	*2\right	*	*	*	*	*	*
!LO:LB:g=original	!	!	!	!	!	!	!	!	!	!	!	!	!	!	!	!	!	!	!	!	!	!	!	!	!	!	!	!	!
4GG/	.	2g\	.	8b-/L	.	2ee-\	.	2G\	-ło	2B-\	-ło	2g\	-dzie	.	2ee-\yy	-ło	2G/	.	2e-\	.	4GG/	.	2ee-\	.	2gg\	.	2gg\	.	2eee-\
.	.	.	.	8g/	.	.	.	.	.	.	.	.	.	.	.	.	.	.	.	.	.	.	.	.	.	.	.	.	.
4BB-/	.	.	.	8e-/	.	.	.	.	.	.	.	.	.	.	.	.	.	.	.	.	4BB-/	.	.	.	.	.	.	.	.
.	.	.	.	8G/J	.	.	.	.	.	.	.	.	.	.	.	.	.	.	.	.	.	.	.	.	.	.	.	.	.
=15	=15	=15	=15	=15	=15	=15	=15	=15	=15	=15	=15	=15	=15	=15	=15	=15	=15	=15	=15	=15	=15	=15	=15	=15	=15	=15	=15	=15	=15
2AA-/	.	4a-\	.	8A-X/L	.	4f/	.	2A-\	poi-	2B-\	poi-	2f\	w_zie-	.	2ee-\yy	poi-	2B-/	.	2e-\	.	2AA-/	.	2ee-\	.	2gg\	.	2gg\	.	2eee-\
.	.	.	.	8f/	.	.	.	.	.	.	.	.	.	.	.	.	.	.	.	.	.	.	.	.	.	.	.	.	.
.	.	4f\	.	8c/	.	4ee-\	.	.	.	.	.	.	.	.	.	.	.	.	.	.	.	.	.	.	.	.	.	.	.
.	.	.	.	8A-/J	.	.	.	.	.	.	.	.	.	.	.	.	.	.	.	.	.	.	.	.	.	.	.	.	.
2BB-/	.	4b-\	.	8B-/L	.	4f/	.	2B-\	.	2B-\	.	2f\	.	.	2dd\yy	.	2B-/	.	2f\	.	2BB-/	.	2dd\	.	2ff\	.	2ff\	.	2ddd\
.	.	.	.	8f/	.	.	.	.	.	.	.	.	.	.	.	.	.	.	.	.	.	.	.	.	.	.	.	.	.
.	.	4a-\	.	8d/	.	4dd\	.	.	.	.	.	.	.	.	.	.	.	.	.	.	.	.	.	.	.	.	.	.	.
.	.	.	.	8B-/J	.	.	.	.	.	.	.	.	.	.	.	.	.	.	.	.	.	.	.	.	.	.	.	.	.
!	!	!	!	!LO:LB:g=original	!	!	!	!	!	!	!	!	!	!	!	!	!	!	!	!	!	!	!	!	!	!	!	!	!
=16	=16	=16	=16	=16	=16	=16	=16	=16	=16	=16	=16	=16	=16	=16	=16	=16	=16	=16	=16	=16	=16	=16	=16	=16	=16	=16	=16	=16	=16
2E-\	.	2g\	.	8e-/L	f	2ee-\	.	2E-\	-dzie	2B-\	-dzie	2g\	-mie	.	2ee-\yy	-dzie	2e-\	.	2g\	.	2E-\	.	2ee-\	.	2gg\	.	2gg\	.	2eee-\
.	.	.	.	8G/	.	.	.	.	.	.	.	.	.	.	.	.	.	.	.	.	.	.	.	.	.	.	.	.	.
.	.	.	.	8B-/	.	.	.	.	.	.	.	.	.	.	.	.	.	.	.	.	.	.	.	.	.	.	.	.	.
.	.	.	.	8e-/J	.	.	.	.	.	.	.	.	.	.	.	.	.	.	.	.	.	.	.	.	.	.	.	.	.
2r	.	2r	.	8g/L	.	4r	.	2r	.	2r	.	2r	.	.	2ryy	.	2r	.	2r	.	2r	.	2r	.	2r	.	2r	.	2r
.	.	.	.	8b-/	.	.	.	.	.	.	.	.	.	.	.	.	.	.	.	.	.	.	.	.	.	.	.	.	.
.	.	.	.	8d/	.	4b-\	.	.	.	.	.	.	.	.	.	.	.	.	.	.	.	.	.	.	.	.	.	.	.
.	.	.	.	8e-/J	.	.	.	.	.	.	.	.	.	.	.	.	.	.	.	.	.	.	.	.	.	.	.	.	.
!	!	!	!	!	!	!	!	!	!	!LO:LB:g=original	!	!	!	!	!	!	!	!	!	!	!	!	!	!	!	!	!	!	!
=17	=17	=17	=17	=17	=17	=17	=17	=17	=17	=17	=17	=17	=17	=17	=17	=17	=17	=17	=17	=17	=17	=17	=17	=17	=17	=17	=17	=17	=17
2E-\	.	8g\L	.	8e-/L	.	4ee-\	.	1E-	poi-	1e-	poi-	1b-	Kie-	.	1gg	Poi-	2E-/	.	2B-/	.	2E-\	.	1ee-	.	1gg	.	1ee-	.	1gg
.	.	8e-\	.	8B-/	.	.	.	.	.	.	.	.	.	.	.	.	.	.	.	.	.	.	.	.	.	.	.	.	.
.	.	8g\	.	8e-/	.	4b-\	.	.	.	.	.	.	.	.	.	.	.	.	.	.	.	.	.	.	.	.	.	.	.
.	.	8e-\J	.	8B-/J	.	.	.	.	.	.	.	.	.	.	.	.	.	.	.	.	.	.	.	.	.	.	.	.	.
4G\	.	8g\L	.	8e-/L	.	4gg\	.	.	.	.	.	.	.	.	.	.	2r	.	2r	.	4G\	.	.	.	.	.	.	.	.
.	.	8e-\	.	8B-/	.	.	.	.	.	.	.	.	.	.	.	.	.	.	.	.	.	.	.	.	.	.	.	.	.
4E-\	.	8g\	.	8e-/	.	4ee-\	.	.	.	.	.	.	.	.	.	.	.	.	.	.	4E-\	.	.	.	.	.	.	.	.
.	.	8e-\J	.	8B-/J	.	.	.	.	.	.	.	.	.	.	.	.	.	.	.	.	.	.	.	.	.	.	.	.	.
!	!	!	!	!	!	!	!	!	!	!	!	!	!	!	!	!	!	!	!	!	!	!	!LO:LB:g=original	!	!	!	!	!	!
=18	=18	=18	=18	=18	=18	=18	=18	=18	=18	=18	=18	=18	=18	=18	=18	=18	=18	=18	=18	=18	=18	=18	=18	=18	=18	=18	=18	=18	=18
4B-\	.	8f\L	.	8d/L	.	(4ff\	.	1BB-	-dzie	1d	-dzie	1b-	-dy	.	1ff	-dzie	2BB-/	.	2B-/	.	4B-\	.	1dd	.	1ff	.	1dd	.	1ff
.	.	8d\	.	8B-/	.	.	.	.	.	.	.	.	.	.	.	.	.	.	.	.	.	.	.	.	.	.	.	.	.
4BB-/	.	8f\	.	8d/	.	4b-\)	.	.	.	.	.	.	.	.	.	.	.	.	.	.	4BB-/	.	.	.	.	.	.	.	.
.	.	8d\J	.	8B-/J	.	.	.	.	.	.	.	.	.	.	.	.	.	.	.	.	.	.	.	.	.	.	.	.	.
*	*	*	*	*rep	*	*	*	*	*	*	*	*	*	*	*	*	*	*	*	*	*	*	*	*	*	*	*	*	*
4D/	.	8f\L	.	8d/L	.	4b-|\	.	.	.	.	.	.	.	.	.	.	2r	.	2r	.	4D/	.	.	.	.	.	.	.	.
.	.	8d\	.	8B-/	.	.	.	.	.	.	.	.	.	.	.	.	.	.	.	.	.	.	.	.	.	.	.	.	.
4BB-/	.	8f\	.	8d/	.	4b-|\	.	.	.	.	.	.	.	.	.	.	.	.	.	.	4BB-/	.	.	.	.	.	.	.	.
.	.	8d\J	.	8B-/J	.	.	.	.	.	.	.	.	.	.	.	.	.	.	.	.	.	.	.	.	.	.	.	.	.
*	*	*	*	*Xrep	*	*	*	*	*	*	*	*	*	*	*	*	*	*	*	*	*	*	*	*	*	*	*	*	*
=19	=19	=19	=19	=19	=19	=19	=19	=19	=19	=19	=19	=19	=19	=19	=19	=19	=19	=19	=19	=19	=19	=19	=19	=19	=19	=19	=19	=19	=19
4FF/	.	8e-\L	.	8c/L	.	4an\	.	[y1F	w_zie-	[y1c	w_zie-	1an	poy-	.	1ee-	w_zie-	2f\	.	2f\	.	4FF/	.	1cc	.	1ee-	.	1cc	.	1ee-
.	.	8c\	.	8f/	.	.	.	.	.	.	.	.	.	.	.	.	.	.	.	.	.	.	.	.	.	.	.	.	.
4F\	.	8e-\	.	8c/	.	4cc\	.	.	.	.	.	.	.	.	.	.	.	.	.	.	4F\	.	.	.	.	.	.	.	.
.	.	8c\J	.	8f/J	.	.	.	.	.	.	.	.	.	.	.	.	.	.	.	.	.	.	.	.	.	.	.	.	.
4An\	.	8e-\L	.	8An/L	.	4f/	.	.	.	.	.	.	.	.	.	.	2r	.	2r	.	4An\	.	.	.	.	.	.	.	.
.	.	8c\	.	8f/	.	.	.	.	.	.	.	.	.	.	.	.	.	.	.	.	.	.	.	.	.	.	.	.	.
4F\	.	8e-\	.	8A/	.	4ee-\	.	.	.	.	.	.	.	.	.	.	.	.	.	.	4F\	.	.	.	.	.	.	.	.
.	.	8c\J	.	8f/J	.	.	.	.	.	.	.	.	.	.	.	.	.	.	.	.	.	.	.	.	.	.	.	.	.
!	!	!	!	!	!	!	!	!	!	!	!	!LO:LB:g=original	!	!	!	!	!	!	!	!	!	!	!	!	!	!	!	!	!
=20	=20	=20	=20	=20	=20	=20	=20	=20	=20	=20	=20	=20	=20	=20	=20	=20	=20	=20	=20	=20	=20	=20	=20	=20	=20	=20	=20	=20	=20
!	!	!LO:TX:t=P:problem:mixed beam	!	!	!	!	!	!LO:N:xstem:cue:vis=4	!	!LO:N:xstem:cue:vis=4	!	!LO:SIC:v:s=2an\	!	!	!	!	!	!	!	!	!	!	!	!	!	!	!	!	!
2F\	.	8e-\L	.	8c/L	.	2ee-\	.	2F\]	.	2c\]	.	2a-\	-dzie	.	1dd	.	2f\	.	2f\	.	2F\	.	2cc\	.	2ee-\	.	2cc\	.	2ee-\
.	.	8c\	.	8f/	.	.	.	.	.	.	.	.	.	.	.	.	.	.	.	.	.	.	.	.	.	.	.	.	.
.	.	8An/	.	8c/	.	.	.	.	.	.	.	.	.	.	.	.	.	.	.	.	.	.	.	.	.	.	.	.	.
.	.	8c/J	.	8f/J	.	.	.	.	.	.	.	.	.	.	.	.	.	.	.	.	.	.	.	.	.	.	.	.	.
*	*	*	*	*2\right	*	*	*	*	*	*	*	*	*	*	*	*	*	*	*	*	*	*	*	*	*	*	*	*	*
2BB-/	.	2d\	.	2b-\	.	2dd\	.	2G\	.	2c\	.	2b-\	w_zie-	.	.	.	2B-/	.	2f\	.	2BB-/	.	2b-\	.	2dd\	.	2b-\	.	2dd\
!	!	!	!	!	!	!	!	!LO:LB:g=original	!	!	!	!	!	!	!	!	!	!	!	!	!	!	!	!	!	!	!	!	!
=21	=21	=21	=21	=21	=21	=21	=21	=21	=21	=21	=21	=21	=21	=21	=21	=21	=21	=21	=21	=21	=21	=21	=21	=21	=21	=21	=21	=21	=21
2E-\	.	4r	.	4r	p	4r	.	2E-\	-mie	2c\	-mie	2g\	-mie	.	2cc\	-mie	2E-/	.	2e-\	.	2E-\	.	1g	.	1cc	.	1gg	.	1ccc
.	.	4e-\	.	4g/	.	(8cc\L	.	.	.	.	.	.	.	.	.	.	.	.	.	.	.	.	.	.	.	.	.	.	.
.	.	.	.	.	.	8dd\J)	.	.	.	.	.	.	.	.	.	.	.	.	.	.	.	.	.	.	.	.	.	.	.
2r	.	4e-\	.	4g/	.	4cc\	.	2r	.	2r	.	2r	.	.	2r	.	2r	.	2r	.	2r	.	.	.	.	.	.	.	.
.	.	4e-\	.	4g/	.	4cc\	.	.	.	.	.	.	.	.	.	.	.	.	.	.	.	.	.	.	.	.	.	.	.
!	!	!	!	!	!	!LO:LB:g=original	!	!	!	!	!	!	!	!	!LO:LB:g=original	!	!	!	!	!	!	!	!	!	!	!	!	!	!
=22	=22	=22	=22	=22	=22	=22	=22	=22	=22	=22	=22	=22	=22	=22	=22	=22	=22	=22	=22	=22	=22	=22	=22	=22	=22	=22	=22	=22	=22
2En\	.	4r	.	4r	.	4r	p	2En\	Niech	2c\	Niech	2g\	Niech	.	2cc\	Niech	2G/	.	2B-/	.	2En\	.	1g	.	1b-	.	1gg	.	1bb-
.	.	4en\	.	4g/	.	(8b-\L	.	.	.	.	.	.	.	.	.	.	.	.	.	.	.	.	.	.	.	.	.	.	.
.	.	.	.	.	.	8cc\J)	.	.	.	.	.	.	.	.	.	.	.	.	.	.	.	.	.	.	.	.	.	.	.
2r	.	4e\	.	4g/	.	4b-\	.	2r	.	2r	.	2r	.	.	2r	.	2r	.	2r	.	2r	.	.	.	.	.	.	.	.
.	.	4e\	.	4g/	.	4b-\	.	.	.	.	.	.	.	.	.	.	.	.	.	.	.	.	.	.	.	.	.	.	.
!	!	!	!	!	!	!	!	!	!	!	!	!	!	!	!	!	!LO:LB:g=original	!	!	!	!	!	!	!	!LO:LB:g=original	!	!	!	!
=23	=23	=23	=23	=23	=23	=23	=23	=23	=23	=23	=23	=23	=23	=23	=23	=23	=23	=23	=23	=23	=23	=23	=23	=23	=23	=23	=23	=23	=23
2F\	.	2c\	.	2f/	.	2an/	.	2F\	Niech	2c\	Niech	2f\	Niech	.	2an\	Niech	2r	.	2r	.	2F\	.	2f/	.	2an/	.	2ff\	.	2aan\
2F\	.	2c\	.	2an/	.	2ff\	.	2r	.	2r	.	2r	.	.	2r	.	2f\	.	2f\	.	2F\	.	2an/	.	2ff\	.	2aan\	.	2fff\
!	!	!LO:LB:g=original	!	!	!	!	!	!	!	!	!	!	!	!	!	!	!	!	!	!	!	!	!	!	!	!	!	!	!
=24	=24	=24	=24	=24	=24	=24	=24	=24	=24	=24	=24	=24	=24	=24	=24	=24	=24	=24	=24	=24	=24	=24	=24	=24	=24	=24	=24	=24	=24
!	!	!	!	!LO:SIC:v:s=2an/	!	!	!	!	!	!	!	!LO:TX:a:t=1.	!	!	!	!	!	!	!	!	!	!	!LO:SIC:v:s=2an/	!	!	!	!LO:SIC:v:s=2aan\	!	!
2F\	.	2c\	.	2a-/	.	2ff\	.	1r	.	1r	.	1r	.	.	1r	.	2f\	.	2f\	.	2F\	.	2a-/	.	2ff\	.	2aa-\	.	2fff\
2r	.	2r	.	2r	.	2r	.	.	.	.	.	.	.	.	.	.	2r	.	2r	.	2r	.	2r	.	2r	.	2r	.	2r
!	!	!	!	!LO:LB:g=original	!	!	!	!	!	!LO:PB:g=original	!	!	!	!	!	!	!	!	!	!	!	!	!	!	!	!	!LO:LB:g=original	!	!LO:LB:g=original
=25	=25	=25	=25	=25	=25	=25	=25	=25	=25	=25	=25	=25	=25	=25	=25	=25	=25	=25	=25	=25	=25	=25	=25	=25	=25	=25	=25	=25	=25
!	!	!	!	!	!	!LO:TX:t=P:problem:mixed beam	!	!	!	!	!	!	!	!	!	!	!	!	!	!	!	!	!	!	!	!	!	!	!
2F\	.	8e-\L	.	8c/L	.	8An/L	.	1F	Niech	1An	Niech	1f	Niech	.	1ee-	Nich	4r	.	4r	.	2F\	.	1an	.	1cc	.	1ccc	.	1eee-
.	.	8c\	.	8f/	.	8f/	.	.	.	.	.	.	.	.	.	.	.	.	.	.	.	.	.	.	.	.	.	.	.
.	.	8e-\	.	8c/	.	8ee-\	.	.	.	.	.	.	.	.	.	.	8f\L	.	8f\L	.	.	.	.	.	.	.	.	.	.
.	.	8c\J	.	8f/J	.	8f/J	.	.	.	.	.	.	.	.	.	.	8f\J	.	8f\J	.	.	.	.	.	.	.	.	.	.
*	*	*	*	*rep	*	*	*	*	*	*	*	*	*	*	*	*	*	*	*	*	*	*	*	*	*	*	*	*	*
!	!	!	!	!	!	!LO:TX:t=P:problem:mixed beam	!	!	!	!	!	!	!	!	!	!	!	!	!	!	!	!	!	!	!	!	!	!	!
2r	.	8e-\L	.	8c/L	.	8A/L	.	.	.	.	.	.	.	.	.	.	4f\	.	4f\	.	2r	.	.	.	.	.	.	.	.
.	.	8c\	.	8f/	.	8f/	.	.	.	.	.	.	.	.	.	.	.	.	.	.	.	.	.	.	.	.	.	.	.
.	.	8e-\	.	8c/	.	8ee-\	.	.	.	.	.	.	.	.	.	.	4r	.	4r	.	.	.	.	.	.	.	.	.	.
.	.	8c\J	.	8f/J	.	8f/J	.	.	.	.	.	.	.	.	.	.	.	.	.	.	.	.	.	.	.	.	.	.	.
*	*	*	*	*Xrep	*	*	*	*	*	*	*	*	*	*	*	*	*	*	*	*	*	*	*	*	*	*	*	*	*
!LO:LB:g=original	!	!	!	!	!	!	!	!	!	!	!	!	!	!	!	!	!	!	!	!	!	!	!	!	!	!	!	!	!
=26	=26	=26	=26	=26	=26	=26	=26	=26	=26	=26	=26	=26	=26	=26	=26	=26	=26	=26	=26	=26	=26	=26	=26	=26	=26	=26	=26	=26	=26
!	!	!	!	!	!	!LO:TX:t=P:problem:mixed beam	!	!	!	!	!	!	!	!	!	!	!	!	!	!	!	!	!	!	!	!	!	!	!
2BB-/	.	8d\L	.	8d/L	.	8B-/L	.	1D	Du-	1B-	Du-	1f	Du-	.	1dd	Du-	4r	.	4r	.	2BB-/	.	1b-	.	1dd	.	1bb-	.	1ddd
.	.	8B-\	.	8f/	.	8f/	.	.	.	.	.	.	.	.	.	.	.	.	.	.	.	.	.	.	.	.	.	.	.
.	.	8d\	.	8d/	.	8dd\	.	.	.	.	.	.	.	.	.	.	8f\L	.	8f\L	.	.	.	.	.	.	.	.	.	.
.	.	8B-\J	.	8f/J	.	8f/J	.	.	.	.	.	.	.	.	.	.	8f\J	.	8f\J	.	.	.	.	.	.	.	.	.	.
*	*	*	*	*rep	*	*	*	*	*	*	*	*	*	*	*	*	*	*	*	*	*	*	*	*	*	*	*	*	*
!	!	!	!	!	!	!	!	!	!	!	!	!	!	!	!	!	!	!	!LO:LB:g=original	!	!	!	!	!	!	!	!	!	!
2r	.	8d\L	.	8d/L	.	8B-/L	.	.	.	.	.	.	.	.	.	.	4f\	.	4f\	.	2r	.	.	.	.	.	.	.	.
.	.	8B-\	.	8f/	.	8f/	.	.	.	.	.	.	.	.	.	.	.	.	.	.	.	.	.	.	.	.	.	.	.
.	.	8d\	.	8d/	.	8b-/	.	.	.	.	.	.	.	.	.	.	4r	.	4r	.	.	.	.	.	.	.	.	.	.
.	.	8B-\J	.	8f/J	.	8f/J	.	.	.	.	.	.	.	.	.	.	.	.	.	.	.	.	.	.	.	.	.	.	.
*	*	*	*	*Xrep	*	*	*	*	*	*	*	*	*	*	*	*	*	*	*	*	*	*	*	*	*	*	*	*	*
!	!	!	!	!	!	!	!	!	!	!	!	!	!	!	!	!	!	!	!	!	!LO:LB:g=original	!	!	!	!	!	!	!	!
=27	=27	=27	=27	=27	=27	=27	=27	=27	=27	=27	=27	=27	=27	=27	=27	=27	=27	=27	=27	=27	=27	=27	=27	=27	=27	=27	=27	=27	=27
2FF/	.	8c/L	.	8e-/L	.	8c/L	.	1AAn	.	1c	.	1fTT	.	.	1an	-sza	4r	.	4r	.	2FF/	.	1cc	.	1ee-	.	1aan	.	1ccc
.	.	8An/	.	8f/	.	8f/	.	.	.	.	.	.	.	.	.	.	.	.	.	.	.	.	.	.	.	.	.	.	.
.	.	8c/	.	8e-/	.	8cc/	.	.	.	.	.	.	.	.	.	.	8f\L	.	8f\L	.	.	.	.	.	.	.	.	.	.
.	.	8A/J	.	8f/J	.	8f/J	.	.	.	.	.	.	.	.	.	.	8f\J	.	8f\J	.	.	.	.	.	.	.	.	.	.
*	*	*	*	*rep	*	*	*	*	*	*	*	*	*	*	*	*	*	*	*	*	*	*	*	*	*	*	*	*	*
2r	.	8c/L	.	8e-/L	.	8c/L	.	.	.	.	.	.	.	.	.	.	2f\	.	2f\	.	2r	.	.	.	.	.	.	.	.
.	.	8A/	.	8f/	.	8f/	.	.	.	.	.	.	.	.	.	.	.	.	.	.	.	.	.	.	.	.	.	.	.
.	.	8c/	.	8e-/	.	8an/	.	.	.	.	.	.	.	.	.	.	.	.	.	.	.	.	.	.	.	.	.	.	.
.	.	8A/J	.	8f/J	.	8f/J	.	.	.	.	.	.	.	.	.	.	.	.	.	.	.	.	.	.	.	.	.	.	.
*	*	*	*	*Xrep	*	*	*	*	*	*	*	*	*	*	*	*	*	*	*	*	*	*	*	*	*	*	*	*	*
=28	=28	=28	=28	=28	=28	=28	=28	=28	=28	=28	=28	=28	=28	=28	=28	=28	=28	=28	=28	=28	=28	=28	=28	=28	=28	=28	=28	=28	=28
!	!	!	!	!	!	!LO:TX:t=P:problem:mixed beam	!	!	!	!	!	!	!	!	!	!	!	!	!	!	!	!	!	!	!	!	!	!	!
2BB-/	.	8B-/L	.	8d/L	.	8d/L	.	1BB-	.	1B-	.	1fTTT	.	.	1b-	Nie-	4r	.	4r	.	2BB-/	.	1b-	.	1dd	.	1bb-	.	1ddd
.	.	8d/	.	8f/	.	8f/	.	.	.	.	.	.	.	.	.	.	.	.	.	.	.	.	.	.	.	.	.	.	.
.	.	8B-/	.	8d/	.	8dd\	.	.	.	.	.	.	.	.	.	.	8f\L	.	8f\L	.	.	.	.	.	.	.	.	.	.
.	.	8d/J	.	8f/J	.	8f/J	.	.	.	.	.	.	.	.	.	.	8f\J	.	8f\J	.	.	.	.	.	.	.	.	.	.
*	*	*	*	*rep	*	*	*	*	*	*	*	*	*	*	*	*	*	*	*	*	*	*	*	*	*	*	*	*	*
2r	.	8B-/L	.	8d/L	.	8d/L	.	.	.	.	.	.	.	.	.	.	2f\	.	2f\	.	2r	.	.	.	.	.	.	.	.
.	.	8d/	.	8f/	.	8f/	.	.	.	.	.	.	.	.	.	.	.	.	.	.	.	.	.	.	.	.	.	.	.
.	.	8B-/	.	8d/	.	8b-/	.	.	.	.	.	.	.	.	.	.	.	.	.	.	.	.	.	.	.	.	.	.	.
.	.	8d/J	.	8f/J	.	8f/J	.	.	.	.	.	.	.	.	.	.	.	.	.	.	.	.	.	.	.	.	.	.	.
*	*	*	*	*Xrep	*	*	*	*	*	*	*	*	*	*	*	*	*	*	*	*	*	*	*	*	*	*	*	*	*
!	!	!	!	!	!	!LO:LB:g=original	!	!	!	!	!	!	!	!	!	!	!	!	!	!	!	!	!	!	!	!	!	!	!
=29	=29	=29	=29	=29	=29	=29	=29	=29	=29	=29	=29	=29	=29	=29	=29	=29	=29	=29	=29	=29	=29	=29	=29	=29	=29	=29	=29	=29	=29
!	!	!	!LO:DY:rj	!	!	!LO:TX:t=P:problem:mixed beam	!	!	!	!	!	!	!	!	!	!	!LO:TX:a:t=3	!	!LO:TX:a:t=3	!	!	!	!	!LO:DY:t=p&colon;	!	!LO:DY:t=p&colon;	!	!LO:DY:t=p&colon;	!
2F\	p	8e-\L	p	8c/L	.	8An/L	.	1F	.	1An	.	1fTTT	.	.	1ee-	-bie-	0r	.	0r	.	2F\	.	1an	p	1cc	p	1ccc	p	1eee-
.	.	8c\	.	8f/	.	8f/	.	.	.	.	.	.	.	.	.	.	.	.	.	.	.	.	.	.	.	.	.	.	.
.	.	8e-\	.	8c/	.	8ee-\	.	.	.	.	.	.	.	.	.	.	.	.	.	.	.	.	.	.	.	.	.	.	.
.	.	8c\J	.	8f/J	.	8f/J	.	.	.	.	.	.	.	.	.	.	.	.	.	.	.	.	.	.	.	.	.	.	.
*	*	*	*	*rep	*	*	*	*	*	*	*	*	*	*	*	*	*	*	*	*	*	*	*	*	*	*	*	*	*
2r	.	8e-\L	.	8c/L	.	8A/L	.	.	.	.	.	.	.	.	.	.	.	.	.	.	2r	.	.	.	.	.	.	.	.
.	.	8c\	.	8f/	.	8f/	.	.	.	.	.	.	.	.	.	.	.	.	.	.	.	.	.	.	.	.	.	.	.
.	.	8e-\	.	8c/	.	8cc/	.	.	.	.	.	.	.	.	.	.	.	.	.	.	.	.	.	.	.	.	.	.	.
.	.	8c\J	.	8f/J	.	8f/J	.	.	.	.	.	.	.	.	.	.	.	.	.	.	.	.	.	.	.	.	.	.	.
*	*	*	*	*Xrep	*	*	*	*	*	*	*	*	*	*	*	*	*	*	*	*	*	*	*	*	*	*	*	*	*
=30	=30	=30	=30	=30	=30	=30	=30	=30	=30	=30	=30	=30	=30	=30	=30	=30	=30	=30	=30	=30	=30	=30	=30	=30	=30	=30	=30	=30	=30
!	!	!	!	!	!	!LO:TX:t=P:problem:mixed beam	!	!	!	!	!	!	!	!	!	!	!	!	!	!	!	!	!	!	!	!	!	!	!
2BB-/	.	8d\L	.	8d/L	.	8B-/L	.	1D	.	1B-	.	1fTTT	.	.	1dd	.	.	.	.	.	2BB-/	.	1b-	.	1dd	.	1bb-	.	1ddd
.	.	8B-\	.	8f/	.	8f/	.	.	.	.	.	.	.	.	.	.	.	.	.	.	.	.	.	.	.	.	.	.	.
.	.	8d\	.	8d/	.	8dd\	.	.	.	.	.	.	.	.	.	.	.	.	.	.	.	.	.	.	.	.	.	.	.
.	.	8B-\J	.	8f/J	.	8f/J	.	.	.	.	.	.	.	.	.	.	.	.	.	.	.	.	.	.	.	.	.	.	.
*	*	*	*	*rep	*	*	*	*	*	*	*	*	*	*	*	*	*	*	*	*	*	*	*	*	*	*	*	*	*
2r	.	8d\L	.	8d/L	.	8B-/L	.	.	.	.	.	.	.	.	.	.	.	.	.	.	2r	.	.	.	.	.	.	.	.
.	.	8B-\	.	8f/	.	8f/	.	.	.	.	.	.	.	.	.	.	.	.	.	.	.	.	.	.	.	.	.	.	.
.	.	8d\	.	8d/	.	8b-/	.	.	.	.	.	.	.	.	.	.	.	.	.	.	.	.	.	.	.	.	.	.	.
.	.	8B-\J	.	8f/J	.	8f/J	.	.	.	.	.	.	.	.	.	.	.	.	.	.	.	.	.	.	.	.	.	.	.
*	*	*	*	*Xrep	*	*	*	*	*	*	*	*	*	*	*	*	*	*	*	*	*	*	*	*	*	*	*	*	*
=31	=31	=31	=31	=31	=31	=31	=31	=31	=31	=31	=31	=31	=31	=31	=31	=31	=31	=31	=31	=31	=31	=31	=31	=31	=31	=31	=31	=31	=31
!	!	!	!	!	!	!	!	!	!	!	!	!	!	!	!	!	!	!	!	!	!	!	!	!	!	!	!LO:SIC:v:s=1aan	!	!
2FF/	.	8c/L	.	8e-/L	.	8c/L	.	1AAn	-sza	1c	-sza	1fTTT	.	.	1an	-skie	1r	.	1r	.	2FF/	.	1cc	.	1ee-	.	1aa-	.	1ccc
.	.	8An/	.	8f/	.	8f/	.	.	.	.	.	.	.	.	.	.	.	.	.	.	.	.	.	.	.	.	.	.	.
.	.	8c/	.	8e-/	.	8cc/	.	.	.	.	.	.	.	.	.	.	.	.	.	.	.	.	.	.	.	.	.	.	.
.	.	8A/J	.	8f/J	.	8f/J	.	.	.	.	.	.	.	.	.	.	.	.	.	.	.	.	.	.	.	.	.	.	.
*	*	*	*	*rep	*	*	*	*	*	*	*	*	*	*	*	*	*	*	*	*	*	*	*	*	*	*	*	*	*
2r	.	8c/L	.	8e-/L	.	8c/L	.	.	.	.	.	.	.	.	.	.	.	.	.	.	2r	.	.	.	.	.	.	.	.
.	.	8A/	.	8f/	.	8f/	.	.	.	.	.	.	.	.	.	.	.	.	.	.	.	.	.	.	.	.	.	.	.
.	.	8c/	.	8e-/	.	8an/	.	.	.	.	.	.	.	.	.	.	.	.	.	.	.	.	.	.	.	.	.	.	.
.	.	8A/J	.	8f/J	.	8f/J	.	.	.	.	.	.	.	.	.	.	.	.	.	.	.	.	.	.	.	.	.	.	.
*	*	*	*	*Xrep	*	*	*	*	*	*	*	*	*	*	*	*	*	*	*	*	*	*	*	*	*	*	*	*	*
!	!	!	!	!LO:PB:g=original	!	!	!	!LO:LB:g=original	!	!	!	!LO:LB:g=original	!	!	!	!	!	!	!	!	!	!	!	!	!	!	!	!	!
=32	=32	=32	=32	=32	=32	=32	=32	=32	=32	=32	=32	=32	=32	=32	=32	=32	=32	=32	=32	=32	=32	=32	=32	=32	=32	=32	=32	=32	=32
!	!LO:DY:t=fr.	!	!LO:DY:t=f&colon;	!	!LO:DY:a	!	!	!	!	!	!	!	!	!	!	!	!	!	!	!LO:DY:t=f.	!	!	!	!	!	!LO:DY:t=for&colon;	!	!	!
4BB-/	f	8B-/L	f	4cc 4f/	f	4d/	f	2BB-/	Nie-	2d\	Nie-	2f\	-sza	.	2b-\	ple-	1B-	.	1f	f	4BB-/	.	2b-\	.	2dd\	f	2bb-\	.	2ddd\
.	.	8d/	.	.	.	.	.	.	.	.	.	.	.	.	.	.	.	.	.	.	.	.	.	.	.	.	.	.	.
4BB-/	.	8B-/	.	8bb-\L	.	(8bb-\L	.	.	.	.	.	.	.	.	.	.	.	.	.	.	4BB-/	.	.	.	.	.	.	.	.
.	.	8d/J	.	8aan\J	.	8aan\J)	.	.	.	.	.	.	.	.	.	.	.	.	.	.	.	.	.	.	.	.	.	.	.
!	!	!	!	!	!	!	!	!	!	!	!	!	!	!LO:DY:a:t=f&colon;:rj	!	!	!	!	!	!	!	!	!	!LO:DY:t=for&colon;	!	!	!	!LO:DY:t=fort.	!
4D/	.	8f\L	.	8bb-\L	.	8bb-\L	.	2BB-/	-bie-	4B-\	.	2b-\	Nie-	f	2dd\	.	.	.	.	.	4D/	.	2dd\	f	[2bb-\	.	[2bb-\	f	2ddd\
.	.	8d\	.	8dd\	.	(8dd\	.	.	.	.	.	.	.	.	.	.	.	.	.	.	.	.	.	.	.	.	.	.	.
4BB-/	.	8f\	.	8ee-\	.	8ee-\	.	.	.	4d\	.	.	.	.	.	.	.	.	.	.	4BB-/	.	.	.	.	.	.	.	.
.	.	8d\J	.	8dd\J	.	8dd\J)	.	.	.	.	.	.	.	.	.	.	.	.	.	.	.	.	.	.	.	.	.	.	.
=33	=33	=33	=33	=33	=33	=33	=33	=33	=33	=33	=33	=33	=33	=33	=33	=33	=33	=33	=33	=33	=33	=33	=33	=33	=33	=33	=33	=33	=33
4F\	.	8cc\L	.	8cc\L	.	8cc\L	.	1F	.	4f\	.	2b-\	.	.	1cc	.	1f	.	1f	.	4F\	.	1cc	.	2bb-\]	.	2bb-\]	.	1ccc
.	.	8b-\	.	8bb-\	.	(8bb-\	.	.	.	.	.	.	.	.	.	.	.	.	.	.	.	.	.	.	.	.	.	.	.
!	!	!	!	!LO:SIC:v:s=8aan\	!	!LO:SIC:v:s=8aan\	!	!	!	!	!	!	!	!	!	!	!	!	!	!	!	!	!	!	!	!	!	!	!
4FF/	.	8cc\	.	8aa-\	.	8aa-\	.	.	.	4c\	.	.	.	.	.	.	.	.	.	.	4FF/	.	.	.	.	.	.	.	.
.	.	8b-\J	.	8gg\J	.	8gg\J)	.	.	.	.	.	.	.	.	.	.	.	.	.	.	.	.	.	.	.	.	.	.	.
!	!	!LO:LB:g=original	!	!	!	!	!	!	!	!	!	!	!	!	!	!	!	!	!	!	!	!	!	!	!	!	!	!	!
!LO:SIC:v:s=4AAn/	!	!LO:SIC:v:s=8an\L	!	!LO:SIC:v:s=8aa\L	!	!LO:SIC:v:s=8aa\L	!	!	!	!	!	!	!	!	!	!	!	!	!	!	!LO:SIC:v:s=4AAn/	!	!	!	!	!	!	!	!
4AA-/	.	8a-\L	.	8aa-\L	.	8aa-\L	.	.	.	4An\	.	2an\	.	.	.	.	.	.	.	.	4AA-/	.	.	.	[2aan\	.	[2aan\	.	.
.	.	8cc\	.	8cc\	.	(8cc\	.	.	.	.	.	.	.	.	.	.	.	.	.	.	.	.	.	.	.	.	.	.	.
4FF/	.	8a-\	.	8dd\	.	8dd\	.	.	.	4c\	.	.	.	.	.	.	.	.	.	.	4FF/	.	.	.	.	.	.	.	.
.	.	8cc\J	.	8cc\J	.	8cc\J)	.	.	.	.	.	.	.	.	.	.	.	.	.	.	.	.	.	.	.	.	.	.	.
=34	=34	=34	=34	=34	=34	=34	=34	=34	=34	=34	=34	=34	=34	=34	=34	=34	=34	=34	=34	=34	=34	=34	=34	=34	=34	=34	=34	=34	=34
!	!	!	!	!	!	!	!	!	!	!	!	!LO:SIC:v:s=2an\	!	!	!	!	!	!	!	!	!	!	!	!	!	!	!	!	!
4GG/	.	8b-\L	.	8b-\L	.	8b-\L	.	1G	.	4e-\	.	2a-\	.	.	1b-	.	1G	.	1g	.	4GG/	.	1b-	.	2aa\]	.	2aa\]	.	1bb-
!	!	!	!	!	!	!LO:SIC:v:s=(8aan\	!	!	!	!	!	!	!	!	!	!	!	!	!	!	!	!	!	!	!	!	!	!	!
.	.	8a-\	.	8aan\	.	(8aa-X\	.	.	.	.	.	.	.	.	.	.	.	.	.	.	.	.	.	.	.	.	.	.	.
4G\	.	8b-\	.	8gg\	.	8gg\	.	.	.	4B-\	.	.	.	.	.	.	.	.	.	.	4G\	.	.	.	.	.	.	.	.
.	.	8a-\J	.	8ff#X\J	.	8ff#X\J)	.	.	.	.	.	.	.	.	.	.	.	.	.	.	.	.	.	.	.	.	.	.	.
4B-\	.	8g\L	.	(8gg\L	.	8gg\L	.	.	.	4G\	.	2g\	.	.	.	.	.	.	.	.	4B-\	.	.	.	[2gg\	.	2gg\	.	.
.	.	8b-\	.	8b-\	.	(8b-\	.	.	.	.	.	.	.	.	.	.	.	.	.	.	.	.	.	.	.	.	.	.	.
4G\	.	8g\	.	8cc\	.	8cc\	.	.	.	4B-\	.	.	.	.	.	.	.	.	.	.	4G\	.	.	.	.	.	.	.	.
.	.	8b-\J	.	8b-\J)	.	8b-\J)	.	.	.	.	.	.	.	.	.	.	.	.	.	.	.	.	.	.	.	.	.	.	.
!	!	!	!	!	!	!	!	!	!	!	!	!	!	!	!LO:LB:g=original	!	!	!	!	!	!	!	!	!	!	!	!	!	!
=35	=35	=35	=35	=35	=35	=35	=35	=35	=35	=35	=35	=35	=35	=35	=35	=35	=35	=35	=35	=35	=35	=35	=35	=35	=35	=35	=35	=35	=35
!	!	!	!	!	!	!LO:SIC:v:s=8an/L	!	!	!	!	!	!	!	!	!	!	!	!	!	!	!	!	!	!	!	!	!	!	!
!	!	!	!	!LO:SIC:v:s=8an\L	!	!LO:TX:t=P:problem:mixed beam	!	!	!	!	!	!	!	!	!	!	!LO:TX:a:t=1	!	!LO:TX:a:t=1	!	!	!	!	!	!	!	!	!	!
4d\	.	8a-\L	.	8a-\L	.	8a-/L	.	1D	.	4d\	.	2g\	.	.	1an	-mie	1r	.	1r	.	4d\	.	1an	.	2gg\]	.	2gg\	.	1aan
.	.	8g\	.	8gg\	.	(8gg\	.	.	.	.	.	.	.	.	.	.	.	.	.	.	.	.	.	.	.	.	.	.	.
!	!	!	!	!	!	!	!	!	!	!LO:SIC:v:s=4An\	!	!	!	!	!	!	!	!	!	!	!	!	!	!	!	!	!	!	!
4D\	.	8a-\	.	8ffn\	.	8ffn\	.	.	.	4A-\	.	.	.	.	.	.	.	.	.	.	4D\	.	.	.	.	.	.	.	.
.	.	8g\J	.	8ee-\J	.	8ee-\J)	.	.	.	.	.	.	.	.	.	.	.	.	.	.	.	.	.	.	.	.	.	.	.
!	!	!	!	!	!	!LO:LB:g=original	!	!	!	!	!	!	!	!	!	!	!	!	!	!	!	!	!	!	!	!	!	!	!
4F\	.	8f\L	.	8ff\L	.	8ff\L	.	.	.	4F\	.	2f\	.	.	.	.	.	.	.	.	4F\	.	.	.	[2ff\	.	2ff\	.	.
!	!	!	!	!LO:SIC:v:s=8a\	!	!LO:SIC:v:s=(8a\	!	!	!	!	!	!	!	!	!	!	!	!	!	!	!	!	!	!	!	!	!	!	!
.	.	8a-\	.	8a-\	.	(8a-\	.	.	.	.	.	.	.	.	.	.	.	.	.	.	.	.	.	.	.	.	.	.	.
!	!	!	!	!	!	!	!	!	!	!LO:SIC:v:s=4A\	!	!	!	!	!	!	!	!	!	!	!	!	!	!	!	!	!	!	!
4D\	.	8f\	.	8b-\	.	8b-\	.	.	.	4A-\	.	.	.	.	.	.	.	.	.	.	4D\	.	.	.	.	.	.	.	.
!	!	!	!	!LO:SIC:v:s=8a\J	!	!LO:SIC:v:s=8a\J)	!	!	!	!	!	!	!	!	!	!	!	!	!	!	!	!	!	!	!	!	!	!	!
.	.	8a-\J	.	8a-\J	.	8a-\J)	.	.	.	.	.	.	.	.	.	.	.	.	.	.	.	.	.	.	.	.	.	.	.
!	!	!	!	!	!	!	!	!	!	!LO:LB:g=original	!	!	!	!	!	!	!	!	!	!	!	!	!	!	!	!	!	!	!
=36	=36	=36	=36	=36	=36	=36	=36	=36	=36	=36	=36	=36	=36	=36	=36	=36	=36	=36	=36	=36	=36	=36	=36	=36	=36	=36	=36	=36	=36
!	!	!	!	!LO:TX:t=P:problem:mixed beam	!	!LO:TX:t=P:problem:mixed beam	!	!	!	!	!	!	!	!	!	!	!	!	!	!	!	!	!	!	!	!	!	!	!
4E-\	.	8g\L	.	8g/L	.	8g/L	.	1E-	.	4c\	.	2f\	.	.	1g	Niech	1e-	.	1e-	.	4E-\	.	1g	.	2ff\]	.	2ff\	.	1gg
.	.	8f\	.	8ff\	.	(8ff\	.	.	.	.	.	.	.	.	.	.	.	.	.	.	.	.	.	.	.	.	.	.	.
4E-\	.	8g\	.	8ee-X\	.	8ee-X\	.	.	.	4G\	.	.	.	.	.	.	.	.	.	.	4E-\	.	.	.	.	.	.	.	.
.	.	8f\J	.	8dd\J	.	8dd\J)	.	.	.	.	.	.	.	.	.	.	.	.	.	.	.	.	.	.	.	.	.	.	.
!	!	!	!	!LO:TX:t=P:problem:mixed beam	!	!LO:TX:t=P:problem:mixed beam	!	!	!	!	!	!	!	!	!	!	!	!	!	!	!	!	!	!	!	!	!	!	!
4G\	.	8e-X\L	.	8ee-\L	.	8ee-\L	.	.	.	4E-/	.	2e-\	.	.	.	.	.	.	.	.	4G\	.	.	.	[2ee-\	.	2ee-\	.	.
.	.	8g\	.	8g/	.	(8g/	.	.	.	.	.	.	.	.	.	.	.	.	.	.	.	.	.	.	.	.	.	.	.
!	!	!	!	!LO:SIC:v:s=8an/	!	!LO:SIC:v:s=8an/	!	!	!	!	!	!	!	!	!	!	!	!	!	!	!	!	!	!	!	!	!	!	!
4E-\	.	8e-\	.	8a-/	.	8a-/	.	.	.	4G/	.	.	.	.	.	.	.	.	.	.	4E-\	.	.	.	.	.	.	.	.
.	.	8g\J	.	8g/J	.	8g/J)	.	.	.	.	.	.	.	.	.	.	.	.	.	.	.	.	.	.	.	.	.	.	.
=37	=37	=37	=37	=37	=37	=37	=37	=37	=37	=37	=37	=37	=37	=37	=37	=37	=37	=37	=37	=37	=37	=37	=37	=37	=37	=37	=37	=37	=37
!	!	!	!	!LO:TX:t=P:problem:mixed beam	!	!LO:TX:t=P:problem:mixed beam	!	!	!	!	!	!	!	!	!	!	!	!	!	!	!	!	!	!	!	!	!	!	!
4B-\	.	8f\L	.	8f/L	.	8f/L	.	1BB-	.	4B-\	.	2e-\	.	.	1f	Du-	1B-	.	1B-	.	4B-\	.	1f	.	2ee-\]	.	2ee-\	.	[2ff\
.	.	8e-\	.	8ee-\	.	(8ee-\	.	.	.	.	.	.	.	.	.	.	.	.	.	.	.	.	.	.	.	.	.	.	.
4BB-/	.	8f\	.	8dd\	.	8dd\	.	.	.	4F/	.	.	.	.	.	.	.	.	.	.	4BB-/	.	.	.	.	.	.	.	.
.	.	8e-\J	.	8cc\J	.	8cc\J)	.	.	.	.	.	.	.	.	.	.	.	.	.	.	.	.	.	.	.	.	.	.	.
!	!	!	!	!LO:TX:t=P:problem:mixed beam	!	!LO:TX:t=P:problem:mixed beam	!	!	!	!	!	!	!	!	!	!	!	!	!	!	!	!	!	!	!	!	!	!	!
4D/	.	8d\L	.	8dd\L	.	8dd\L	.	.	.	4D/	.	2d\	.	.	.	.	.	.	.	.	4D/	.	.	.	[2dd\	.	2dd\	.	2ff\]
.	.	8f\	.	8f/	.	(8f/	.	.	.	.	.	.	.	.	.	.	.	.	.	.	.	.	.	.	.	.	.	.	.
4BB-/	.	8d\	.	8g/	.	8g/	.	.	.	4F/	.	.	.	.	.	.	.	.	.	.	4BB-/	.	.	.	.	.	.	.	.
.	.	8f\J	.	8f/J	.	8f/J)	.	.	.	.	.	.	.	.	.	.	.	.	.	.	.	.	.	.	.	.	.	.	.
!LO:LB:g=original	!	!	!	!	!	!	!	!	!	!	!	!	!	!	!	!	!	!	!	!	!LO:LB:g=original	!	!	!	!	!	!	!	!
=38	=38	=38	=38	=38	=38	=38	=38	=38	=38	=38	=38	=38	=38	=38	=38	=38	=38	=38	=38	=38	=38	=38	=38	=38	=38	=38	=38	=38	=38
!	!	!	!	!LO:TX:t=P:problem:mixed beam	!	!LO:TX:t=P:problem:mixed beam	!	!	!	!LO:SIC:v:s=4An/	!	!	!	!	!	!	!LO:TX:a:t=1	!	!LO:TX:a:t=1	!	!	!	!	!	!	!	!	!	!
4CC/	.	8e-\L	.	8e-/L	.	8e-/L	.	1C	.	4A-/	.	2d\	.	.	1e-	.	1r	.	1r	.	4CC/	.	1e-	.	2dd\]	.	2dd\	.	1ee-
.	.	8d\	.	8dd\	.	8dd\	.	.	.	.	.	.	.	.	.	.	.	.	.	.	.	.	.	.	.	.	.	.	.
4C/	.	8e-\	.	8cc\	.	8cc\	.	.	.	4E-/	.	.	.	.	.	.	.	.	.	.	4C/	.	.	.	.	.	.	.	.
!	!	!	!	!LO:SIC:v:s=8bn\J	!	!LO:SIC:v:s=8bn\J	!	!	!	!	!	!	!	!	!	!	!	!	!	!	!	!	!	!	!	!	!	!	!
.	.	8d\J	.	8b-\J	.	8b-\J	.	.	.	.	.	.	.	.	.	.	.	.	.	.	.	.	.	.	.	.	.	.	.
!	!	!	!	!LO:LB:g=original	!	!	!	!	!	!	!	!	!	!	!	!	!	!	!	!	!	!	!	!	!	!	!	!	!
!	!	!	!	!LO:TX:t=P:problem:mixed beam	!	!LO:TX:t=P:problem:mixed beam	!	!	!	!	!	!	!	!	!	!	!	!	!	!	!	!	!	!	!	!	!	!	!
4E-/	.	8c\L	.	8cc\L	.	8cc\L	.	.	.	4c\	.	2c\	.	.	.	.	.	.	.	.	4E-/	.	.	.	[2cc\	.	2cc\	.	.
.	.	8e-\	.	8e-/	.	8e-/	.	.	.	.	.	.	.	.	.	.	.	.	.	.	.	.	.	.	.	.	.	.	.
4C/	.	8c\	.	8f/	.	8f/	.	.	.	4e-\	.	.	.	.	.	.	.	.	.	.	4C/	.	.	.	.	.	.	.	.
.	.	8e-\J	.	8e-/J	.	8e-/J	.	.	.	.	.	.	.	.	.	.	.	.	.	.	.	.	.	.	.	.	.	.	.
=39	=39	=39	=39	=39	=39	=39	=39	=39	=39	=39	=39	=39	=39	=39	=39	=39	=39	=39	=39	=39	=39	=39	=39	=39	=39	=39	=39	=39	=39
!	!	!	!	!LO:TX:t=P:problem:mixed beam	!	!LO:TX:t=P:problem:mixed beam	!	!	!	!	!	!	!	!	!	!	!	!	!	!	!	!	!	!	!	!	!	!	!
4BB-/	.	8d\L	.	8d/L	.	8d/L	.	1BB-	.	4G/	.	2c\	.	.	1d	.	1B-	.	1B-	.	4BB-/	.	1d	.	2cc\]	.	2cc\	.	1dd
.	.	8c\	.	8cc\	.	(8cc\	.	.	.	.	.	.	.	.	.	.	.	.	.	.	.	.	.	.	.	.	.	.	.
4B-\	.	8d\	.	8b-\	.	8b-\	.	.	.	4d\	.	.	.	.	.	.	.	.	.	.	4B-\	.	.	.	.	.	.	.	.
!	!	!	!	!LO:SIC:v:s=8an\J	!	!LO:SIC:v:s=8an\J)	!	!	!	!	!	!	!	!	!	!	!	!	!	!	!	!	!	!	!	!	!	!	!
.	.	8c\J	.	8a-\J	.	8a-\J)	.	.	.	.	.	.	.	.	.	.	.	.	.	.	.	.	.	.	.	.	.	.	.
!	!	!	!	!LO:TX:t=P:problem:mixed beam	!	!LO:TX:t=P:problem:mixed beam	!	!	!	!	!	!	!	!	!	!	!	!	!	!	!	!	!	!	!	!	!	!	!
4d\	.	8B-\L	.	8b-X/L	.	8b-X\L	.	.	.	4B-\	.	2B-/	.	.	.	.	.	.	.	.	4d\	.	.	.	2b-\	.	2b-\	.	.
.	.	8d\	.	8d/	.	(8d/	.	.	.	.	.	.	.	.	.	.	.	.	.	.	.	.	.	.	.	.	.	.	.
4B-\	.	8c\	.	8e-/	.	8e-/	.	.	.	4d\	.	.	.	.	.	.	.	.	.	.	4B-\	.	.	.	.	.	.	.	.
.	.	8B-\J	.	8d/J	.	8d/J)	.	.	.	.	.	.	.	.	.	.	.	.	.	.	.	.	.	.	.	.	.	.	.
!	!	!	!	!	!	!	!	!	!	!	!	!LO:LB:g=original	!	!	!	!	!	!	!	!	!	!	!	!	!LO:LB:g=original	!	!	!	!
=40	=40	=40	=40	=40	=40	=40	=40	=40	=40	=40	=40	=40	=40	=40	=40	=40	=40	=40	=40	=40	=40	=40	=40	=40	=40	=40	=40	=40	=40
!	!	!	!	!LO:TX:t=P:problem:mixed beam	!	!LO:TX:t=P:problem:mixed beam	!	!	!	!	!	!	!	!	!	!	!	!	!	!	!	!	!	!	!	!	!	!	!
4F\	.	8c/L	.	8c/L	.	8c/L	.	2F\	.	4F/	.	2b-\	-bie-	.	2c/	-sza	1f	.	1f	.	4F\	.	1c	.	2b-\	.	2b-\	.	2cc\
.	.	8B-/	.	8b-\	.	8b-\	.	.	.	.	.	.	.	.	.	.	.	.	.	.	.	.	.	.	.	.	.	.	.
!	!	!	!	!LO:SIC:v:s=8an\	!	!LO:SIC:v:s=8an\	!	!	!	!	!	!	!	!	!	!	!	!	!	!	!	!	!	!	!	!	!	!	!
4FF/	.	8c/	.	8a-\	.	8a-\	.	.	.	4c\	.	.	.	.	.	.	.	.	.	.	4FF/	.	.	.	.	.	.	.	.
.	.	8B-/J	.	8g\J	.	8g\J	.	.	.	.	.	.	.	.	.	.	.	.	.	.	.	.	.	.	.	.	.	.	.
!	!	!	!	!LO:SIC:v:s=8a\L	!	!LO:SIC:v:s=8a/L	!	!	!	!	!	!	!	!	!	!	!	!	!	!	!	!	!	!	!	!	!LO:SIC:v:s=2aan\	!	!
4AAn/	.	8An/L	.	8a-\L	.	8a-/L	.	2F\	.	4An\	.	2an\	-skie	.	2cc\	Nie-	.	.	.	.	4AAn/	.	.	.	2an/	.	2aa-\	.	2ccc\
.	.	8c/	.	8c/	.	8c/	.	.	.	.	.	.	.	.	.	.	.	.	.	.	.	.	.	.	.	.	.	.	.
4FF/	.	8A/	.	8d/	.	8d/	.	.	.	4c\	.	.	.	.	.	.	.	.	.	.	4FF/	.	.	.	.	.	.	.	.
.	.	8c/J	.	8c/J	.	8c/J	.	.	.	.	.	.	.	.	.	.	.	.	.	.	.	.	.	.	.	.	.	.	.
=41	=41	=41	=41	=41	=41	=41	=41	=41	=41	=41	=41	=41	=41	=41	=41	=41	=41	=41	=41	=41	=41	=41	=41	=41	=41	=41	=41	=41	=41
2BB-/	.	2f\	.	2B-/	.	2d/	.	2BB-/	-skie	2d\	-bie-	2b-\	ple-	.	2dd\	-bie-	2B-/	.	2f\	.	2BB-/	.	2d/	.	2b-\	.	2bb-\	.	2ddd\
!	!	!	!	!LO:TX:t=P:problem:mixed beam	!	!	!	!	!	!	!	!	!	!	!	!	!	!	!	!	!	!	!	!	!	!	!	!	!
4D\	.	4b-\	.	8dd\L	.	8ff\L	.	2D\	ple-	2d\	-skie	2b-\	-mie	.	2ff\	.	2r	.	2r	.	4D/	.	2dd\	.	2ff\	.	2ddd\	.	2fff\
.	.	.	.	8d/	.	8b-\	.	.	.	.	.	.	.	.	.	.	.	.	.	.	.	.	.	.	.	.	.	.	.
4D\	.	4b-\	.	8dd\	.	8ff\	.	.	.	.	.	.	.	.	.	.	.	.	.	.	4D/	.	.	.	.	.	.	.	.
.	.	.	.	8d/J	.	8b-\J	.	.	.	.	.	.	.	.	.	.	.	.	.	.	.	.	.	.	.	.	.	.	.
!	!	!LO:LB:g=original	!	!	!	!	!	!LO:LB:g=original	!	!	!	!	!	!	!	!	!	!	!	!	!	!	!LO:LB:g=original	!	!	!	!LO:LB:g=original	!	!
=42	=42	=42	=42	=42	=42	=42	=42	=42	=42	=42	=42	=42	=42	=42	=42	=42	=42	=42	=42	=42	=42	=42	=42	=42	=42	=42	=42	=42	=42
!	!	!	!	!LO:TX:t=P:problem:mixed beam	!	!	!	!	!	!	!	!	!	!	!	!	!	!	!	!	!	!	!	!	!	!	!	!	!
4E-\	.	4b-\	.	8ee-\L	.	8gg\L	.	2E-\	.	2e-\	ple-	2b-\	ple-	.	2gg\	.	2B-/	.	2B-/	.	4F\	.	2ee-\	.	2gg\	.	2eee-\	.	2ggg\
.	.	.	.	8e-/	.	8b-\	.	.	.	.	.	.	.	.	.	.	.	.	.	.	.	.	.	.	.	.	.	.	.
4E-\	.	4b-\	.	8ee-\	.	8gg\	.	.	.	.	.	.	.	.	.	.	.	.	.	.	4F\	.	.	.	.	.	.	.	.
.	.	.	.	8e-/J	.	8b-\J	.	.	.	.	.	.	.	.	.	.	.	.	.	.	.	.	.	.	.	.	.	.	.
!	!	!	!	!LO:TX:t=P:problem:mixed beam	!	!	!	!	!	!	!	!	!	!	!	!	!	!	!	!	!	!	!	!	!	!	!	!	!
4D\	.	4b-\	.	8dd\L	.	8ff\L	.	2D\	.	2d\	.	2b-\	.	.	2ff\	.	2B-/	.	2B-/	.	4D\	.	2dd\	.	2ff\	.	2ddd\	.	2fff\
.	.	.	.	8d/	.	8b-\	.	.	.	.	.	.	.	.	.	.	.	.	.	.	.	.	.	.	.	.	.	.	.
4D\	.	4b-\	.	8dd\	.	8ff\	.	.	.	.	.	.	.	.	.	.	.	.	.	.	4D\	.	.	.	.	.	.	.	.
.	.	.	.	8d/J	.	8b-\J	.	.	.	.	.	.	.	.	.	.	.	.	.	.	.	.	.	.	.	.	.	.	.
!	!	!	!	!	!	!LO:LB:g=original	!	!	!	!LO:LB:g=original	!	!	!	!	!	!	!LO:LB:g=original	!	!	!	!	!	!	!	!	!	!	!	!
=43	=43	=43	=43	=43	=43	=43	=43	=43	=43	=43	=43	=43	=43	=43	=43	=43	=43	=43	=43	=43	=43	=43	=43	=43	=43	=43	=43	=43	=43
*	*	*	*	*tremolo	*	*tremolo	*	*	*	*	*	*	*	*	*	*	*	*	*	*	*	*	*	*	*	*	*	*	*
2E-\	.	2b-\	.	8ee-\L	.	8gg\L	.	2E-\	.	2e-\	.	2b-\	.	.	2gg\	.	2B-/	.	2B-/	.	2E-\	.	2ee-\	.	2gg\	.	2eee-\	.	2eee-\
.	.	.	.	8ee-\	.	8gg\	.	.	.	.	.	.	.	.	.	.	.	.	.	.	.	.	.	.	.	.	.	.	.
.	.	.	.	8ee-\	.	8gg\	.	.	.	.	.	.	.	.	.	.	.	.	.	.	.	.	.	.	.	.	.	.	.
.	.	.	.	8ee-\J	.	8gg\J	.	.	.	.	.	.	.	.	.	.	.	.	.	.	.	.	.	.	.	.	.	.	.
*	*	*tremolo	*	*	*	*	*	*	*	*	*	*	*	*	*	*	*	*	*	*	*	*	*	*	*	*	*	*	*
!	!	!LO:TX:a:t=....	!	!	!	!	!	!	!	!	!	!	!	!	!	!	!	!	!	!	!	!	!	!	!	!	!	!	!
2G\	.	8d'\L	.	8dd\L	.	8bb-\L	.	2G\	.	2d\	.	2b-\	.	.	2dd\	.	2B-/	.	2g\	.	2G\	.	2dd\	.	2bb-\	.	2bb-\	.	2ddd\
.	.	8d'\	.	8dd\	.	8bb-\	.	.	.	.	.	.	.	.	.	.	.	.	.	.	.	.	.	.	.	.	.	.	.
.	.	8d'\	.	8dd\	.	8bb-\	.	.	.	.	.	.	.	.	.	.	.	.	.	.	.	.	.	.	.	.	.	.	.
.	.	8d'\J	.	8dd\J	.	8bb-\J	.	.	.	.	.	.	.	.	.	.	.	.	.	.	.	.	.	.	.	.	.	.	.
!	!	!	!	!	!	!	!	!	!	!	!	!	!	!	!	!	!	!	!	!	!	!	!	!	!	!	!	!	!LO:LB:g=original
=44	=44	=44	=44	=44	=44	=44	=44	=44	=44	=44	=44	=44	=44	=44	=44	=44	=44	=44	=44	=44	=44	=44	=44	=44	=44	=44	=44	=44	=44
4F\	.	8f\L	.	8cc\L	.	8bb-\L	.	2F\	.	2f\	.	2b-\	.	.	2cc\	-skie	2f\	.	2f\	.	4F\	.	1cc	.	2bb-\	.	2bb-\	.	1ccc
.	.	8f\	.	8cc\	.	8bb-\	.	.	.	.	.	.	.	.	.	.	.	.	.	.	.	.	.	.	.	.	.	.	.
4F\	.	8f\	.	8cc\	.	8bb-\	.	.	.	.	.	.	.	.	.	.	.	.	.	.	4F\	.	.	.	.	.	.	.	.
.	.	8f\J	.	8cc\J	.	8bb-\J	.	.	.	.	.	.	.	.	.	.	.	.	.	.	.	.	.	.	.	.	.	.	.
!	!	!	!	!	!	!LO:SIC:v:s=8aan\L	!	!	!	!	!	!	!	!	!	!	!	!	!	!	!	!	!	!	!	!	!	!	!
4FF/	.	8f\L	.	8cc\L	.	8aa-\L	.	2F\	.	2f\	.	2an\	.	.	2cc\	ple-	2f\	.	2f\	.	4FF/	.	.	.	2aan\	.	2aan\	.	.
!	!	!	!	!	!	!LO:SIC:v:s=8aa\	!	!	!	!	!	!	!	!	!	!	!	!	!	!	!	!	!	!	!	!	!	!	!
.	.	8f\	.	8cc\	.	8aa-\	.	.	.	.	.	.	.	.	.	.	.	.	.	.	.	.	.	.	.	.	.	.	.
!	!	!	!	!	!	!LO:SIC:v:s=8aa\	!	!	!	!	!	!	!	!	!	!	!	!	!	!	!	!	!	!	!	!	!	!	!
4FF/	.	8f\	.	8cc\	.	8aa-\	.	.	.	.	.	.	.	.	.	.	.	.	.	.	4FF/	.	.	.	.	.	.	.	.
!	!	!	!	!	!	!LO:SIC:v:s=8aa\J	!	!	!	!	!	!	!	!	!	!	!	!	!	!	!	!	!	!	!	!	!	!	!
.	.	8f\J	.	8cc\J	.	8aa-\J	.	.	.	.	.	.	.	.	.	.	.	.	.	.	.	.	.	.	.	.	.	.	.
*	*	*Xtremolo	*	*Xtremolo	*	*Xtremolo	*	*	*	*	*	*	*	*	*	*	*	*	*	*	*	*	*	*	*	*	*	*	*
!	!	!	!	!	!	!	!	!	!	!	!	!	!	!	!LO:LB:g=original	!	!	!	!	!	!	!	!	!	!	!	!	!	!
=45	=45	=45	=45	=45	=45	=45	=45	=45	=45	=45	=45	=45	=45	=45	=45	=45	=45	=45	=45	=45	=45	=45	=45	=45	=45	=45	=45	=45	=45
!	!	!	!	!	!	!	!LO:DY:rj	!	!	!	!	!	!	!	!	!	!	!	!	!	!	!	!	!	!	!	!	!	!
2BB-/	.	2f\	.	2dd\	.	4bb-\	p	2BB-/	-mie	2f\	-mie	2b-\	-mie	.	2dd\	-mie	2B-/	.	2f\	.	2BB-/	.	2dd\	.	2bb-\	.	2bb-\	.	2ddd\
.	.	.	.	.	.	4f/	.	.	.	.	.	.	.	.	.	.	.	.	.	.	.	.	.	.	.	.	.	.	.
!	!	!	!	!	!LO:DY:a	!	!	!	!	!	!	!	!	!	!	!	!	!	!	!	!	!	!	!	!	!	!	!	!
2r	.	2r	.	4r	p	2dd\	.	2r	.	2r	.	2r	.	.	2r	.	2r	.	2r	.	2r	.	2r	.	2r	.	2r	.	2r
.	.	.	.	4G/	.	.	.	.	.	.	.	.	.	.	.	.	.	.	.	.	.	.	.	.	.	.	.	.	.
!	!	!	!	!LO:LB:g=original	!	!	!	!	!	!	!	!	!	!	!	!	!	!	!	!	!	!	!	!	!	!	!	!	!
=46	=46	=46	=46	=46	=46	=46	=46	=46	=46	=46	=46	=46	=46	=46	=46	=46	=46	=46	=46	=46	=46	=46	=46	=46	=46	=46	=46	=46	=46
!LO:TX:a:t=11	!	!LO:TX:a:t=11.	!	!LO:TX:a:i:t=dolce	!	!	!	!LO:TX:a:t=19	!	!LO:TX:a:t=19	!	!LO:TX:a:t=19	!	!	!LO:TX:a:t=11	!	!LO:TX:a:t=19	!	!LO:TX:a:t=19	!	!LO:TX:a:t=19.	!	!LO:TX:a:t=19.	!	!LO:TX:a:t=19.	!	!LO:TX:a:t=19	!	!LO:TX:a:t=3
00r	.	00r	.	1e-	.	4dd\	.	00r	.	00r	.	00r	.	.	00r	.	00r	.	00r	.	00r	.	00r	.	00r	.	00r	.	0r
.	.	.	.	.	.	4g/	.	.	.	.	.	.	.	.	.	.	.	.	.	.	.	.	.	.	.	.	.	.	.
.	.	.	.	.	.	(4cc\	.	.	.	.	.	.	.	.	.	.	.	.	.	.	.	.	.	.	.	.	.	.	.
.	.	.	.	.	.	4b-\)	.	.	.	.	.	.	.	.	.	.	.	.	.	.	.	.	.	.	.	.	.	.	.
=47	=47	=47	=47	=47	=47	=47	=47	=47	=47	=47	=47	=47	=47	=47	=47	=47	=47	=47	=47	=47	=47	=47	=47	=47	=47	=47	=47	=47	=47
!	!	!	!	!	!	!LO:SIC:v:s=4an/	!	!	!	!	!	!	!	!	!	!	!	!	!	!	!	!	!	!	!	!	!	!	!
.	.	.	.	2e-/	.	4a-/	.	.	.	.	.	.	.	.	.	.	.	.	.	.	.	.	.	.	.	.	.	.	.
.	.	.	.	.	.	4f/	.	.	.	.	.	.	.	.	.	.	.	.	.	.	.	.	.	.	.	.	.	.	.
.	.	.	.	2d/	.	2b-\	.	.	.	.	.	.	.	.	.	.	.	.	.	.	.	.	.	.	.	.	.	.	.
=48	=48	=48	=48	=48	=48	=48	=48	=48	=48	=48	=48	=48	=48	=48	=48	=48	=48	=48	=48	=48	=48	=48	=48	=48	=48	=48	=48	=48	=48
.	.	.	.	2c/	.	4b-/	.	.	.	.	.	.	.	.	.	.	.	.	.	.	.	.	.	.	.	.	.	.	1r
!	!	!	!	!	!	!LO:SIC:v:s=8an/L	!	!	!	!	!	!	!	!	!	!	!	!	!	!	!	!	!	!	!	!	!	!	!
.	.	.	.	.	.	8a-/L	.	.	.	.	.	.	.	.	.	.	.	.	.	.	.	.	.	.	.	.	.	.	.
.	.	.	.	.	.	8g/J	.	.	.	.	.	.	.	.	.	.	.	.	.	.	.	.	.	.	.	.	.	.	.
!	!	!	!	!	!	!LO:SIC:v:s=2a/	!	!	!	!	!	!	!	!	!	!	!	!	!	!	!	!	!	!	!	!	!	!	!
.	.	.	.	4f/	.	2a-/	.	.	.	.	.	.	.	.	.	.	.	.	.	.	.	.	.	.	.	.	.	.	.
.	.	.	.	4e-/	.	.	.	.	.	.	.	.	.	.	.	.	.	.	.	.	.	.	.	.	.	.	.	.	.
=49	=49	=49	=49	=49	=49	=49	=49	=49	=49	=49	=49	=49	=49	=49	=49	=49	=49	=49	=49	=49	=49	=49	=49	=49	=49	=49	=49	=49	=49
.	.	.	.	4d/	.	4b-\	.	.	.	.	.	.	.	.	.	.	.	.	.	.	.	.	.	.	.	.	.	.	2r
.	.	.	.	4e-/	.	4r	.	.	.	.	.	.	.	.	.	.	.	.	.	.	.	.	.	.	.	.	.	.	.
.	.	.	.	4c/	.	4r	.	.	.	.	.	.	.	.	.	.	.	.	.	.	.	.	.	.	.	.	.	.	4r
.	.	.	.	4B-/	.	4dd\	.	.	.	.	.	.	.	.	.	.	.	.	.	.	.	.	.	.	.	.	.	.	(4ddd\
=50	=50	=50	=50	=50	=50	=50	=50	=50	=50	=50	=50	=50	=50	=50	=50	=50	=50	=50	=50	=50	=50	=50	=50	=50	=50	=50	=50	=50	=50
00r	.	00r	.	4c/	.	4ee-\	.	00r	.	00r	.	00r	.	.	00r	.	00r	.	00r	.	00r	.	00r	.	00r	.	00r	.	4eee-\)
.	.	.	.	4f/	.	4r	.	.	.	.	.	.	.	.	.	.	.	.	.	.	.	.	.	.	.	.	.	.	4r
.	.	.	.	4An/	.	4r	.	.	.	.	.	.	.	.	.	.	.	.	.	.	.	.	.	.	.	.	.	.	4r
.	.	.	.	4f/	.	4ee-\	.	.	.	.	.	.	.	.	.	.	.	.	.	.	.	.	.	.	.	.	.	.	(4eee-\
=51	=51	=51	=51	=51	=51	=51	=51	=51	=51	=51	=51	=51	=51	=51	=51	=51	=51	=51	=51	=51	=51	=51	=51	=51	=51	=51	=51	=51	=51
.	.	.	.	4B-/	.	4dd\	.	.	.	.	.	.	.	.	.	.	.	.	.	.	.	.	.	.	.	.	.	.	4ddd\)
.	.	.	.	4f/	.	4r	.	.	.	.	.	.	.	.	.	.	.	.	.	.	.	.	.	.	.	.	.	.	4r
.	.	.	.	4d/	.	4r	.	.	.	.	.	.	.	.	.	.	.	.	.	.	.	.	.	.	.	.	.	.	4r
.	.	.	.	4B-/	.	4dd\	.	.	.	.	.	.	.	.	.	.	.	.	.	.	.	.	.	.	.	.	.	.	4ddd\
=52	=52	=52	=52	=52	=52	=52	=52	=52	=52	=52	=52	=52	=52	=52	=52	=52	=52	=52	=52	=52	=52	=52	=52	=52	=52	=52	=52	=52	=52
.	.	.	.	.	.	16qqdd/	.	.	.	.	.	.	.	.	.	.	.	.	.	.	.	.	.	.	.	.	.	.	8qqddd/
.	.	.	.	4e-/	.	2cc\	.	.	.	.	.	.	.	.	.	.	.	.	.	.	.	.	.	.	.	.	.	.	2ccc\
.	.	.	.	4c/	.	.	.	.	.	.	.	.	.	.	.	.	.	.	.	.	.	.	.	.	.	.	.	.	.
.	.	.	.	4f/	.	4b-\	.	.	.	.	.	.	.	.	.	.	.	.	.	.	.	.	.	.	.	.	.	.	(4bb-\
!	!	!	!	!	!	!LO:SIC:v:s=4an\	!	!	!	!	!	!	!	!	!	!	!	!	!	!	!	!	!	!	!	!	!	!	!
.	.	.	.	4e-/	.	4a-\	.	.	.	.	.	.	.	.	.	.	.	.	.	.	.	.	.	.	.	.	.	.	4aa-\)
=53	=53	=53	=53	=53	=53	=53	=53	=53	=53	=53	=53	=53	=53	=53	=53	=53	=53	=53	=53	=53	=53	=53	=53	=53	=53	=53	=53	=53	=53
.	.	.	.	4d/	.	4b-\	.	.	.	.	.	.	.	.	.	.	.	.	.	.	.	.	.	.	.	.	.	.	(4bb-\
.	.	.	.	4B-/	.	4dd\	.	.	.	.	.	.	.	.	.	.	.	.	.	.	.	.	.	.	.	.	.	.	4ddd\)
.	.	.	.	4An/	.	2dd\	.	.	.	.	.	.	.	.	.	.	.	.	.	.	.	.	.	.	.	.	.	.	2eee-\
.	.	.	.	4f/	.	.	.	.	.	.	.	.	.	.	.	.	.	.	.	.	.	.	.	.	.	.	.	.	.
!	!	!	!	!	!	!LO:LB:g=original	!	!	!	!	!	!	!	!	!	!	!	!	!	!	!	!	!	!	!	!	!	!	!
=54	=54	=54	=54	=54	=54	=54	=54	=54	=54	=54	=54	=54	=54	=54	=54	=54	=54	=54	=54	=54	=54	=54	=54	=54	=54	=54	=54	=54	=54
0r	.	0r	.	4c/	.	4ee-\	.	00r	.	00r	.	00r	.	.	0r	.	00r	.	00r	.	00r	.	00r	.	00r	.	00r	.	4eee-\
.	.	.	.	4f/	.	4r	.	.	.	.	.	.	.	.	.	.	.	.	.	.	.	.	.	.	.	.	.	.	4r
.	.	.	.	4An/	.	4r	.	.	.	.	.	.	.	.	.	.	.	.	.	.	.	.	.	.	.	.	.	.	4r
.	.	.	.	4f/	.	4ee-\	.	.	.	.	.	.	.	.	.	.	.	.	.	.	.	.	.	.	.	.	.	.	(4eee-\
=55	=55	=55	=55	=55	=55	=55	=55	=55	=55	=55	=55	=55	=55	=55	=55	=55	=55	=55	=55	=55	=55	=55	=55	=55	=55	=55	=55	=55	=55
.	.	.	.	4B-/	.	4dd\	.	.	.	.	.	.	.	.	.	.	.	.	.	.	.	.	.	.	.	.	.	.	4ddd\)
.	.	.	.	4f/	.	4r	.	.	.	.	.	.	.	.	.	.	.	.	.	.	.	.	.	.	.	.	.	.	4r
.	.	.	.	4d/	.	4r	.	.	.	.	.	.	.	.	.	.	.	.	.	.	.	.	.	.	.	.	.	.	4r
.	.	.	.	4B-/	.	4dd\	.	.	.	.	.	.	.	.	.	.	.	.	.	.	.	.	.	.	.	.	.	.	(4ddd\
!	!	!	!	!LO:LB:g=original	!	!	!	!	!	!	!	!	!	!	!	!	!	!	!	!	!	!	!	!	!	!	!	!	!
=56	=56	=56	=56	=56	=56	=56	=56	=56	=56	=56	=56	=56	=56	=56	=56	=56	=56	=56	=56	=56	=56	=56	=56	=56	=56	=56	=56	=56	=56
.	.	.	.	.	.	16qqdd/	.	.	.	.	.	.	.	.	.	.	.	.	.	.	.	.	.	.	.	.	.	.	.
1r	.	1r	.	4e-/	.	2cc\	.	.	.	.	.	.	.	.	1r	.	.	.	.	.	.	.	.	.	.	.	.	.	2ccc\)
.	.	.	.	4c/	.	.	.	.	.	.	.	.	.	.	.	.	.	.	.	.	.	.	.	.	.	.	.	.	.
.	.	.	.	4f/	.	4b-\	.	.	.	.	.	.	.	.	.	.	.	.	.	.	.	.	.	.	.	.	.	.	4bb-\
!	!	!	!	!	!	!LO:SIC:v:s=4an\	!	!	!	!	!	!	!	!	!	!	!	!	!	!	!	!	!	!	!	!	!	!	!
.	.	.	.	4e-/	.	4a-\	.	.	.	.	.	.	.	.	.	.	.	.	.	.	.	.	.	.	.	.	.	.	4aa-\
=57	=57	=57	=57	=57	=57	=57	=57	=57	=57	=57	=57	=57	=57	=57	=57	=57	=57	=57	=57	=57	=57	=57	=57	=57	=57	=57	=57	=57	=57
*^	*	*	*	*	*	*	*	*	*	*	*	*	*	*	*	*	*	*	*	*	*	*	*	*	*	*	*	*	*
*clefC1	*	*	*	*	*	*	*	*	*	*	*	*	*	*	*	*	*	*	*	*	*	*	*	*	*	*	*	*	*	*
2ff/	4r	.	2B-/	.	4B-/	.	2b-\	.	.	.	.	.	.	.	.	1ff	Wie-	.	.	.	.	.	.	.	.	.	.	.	.	2bb-\
.	4d\	.	.	.	4d/	.	.	.	.	.	.	.	.	.	.	.	.	.	.	.	.	.	.	.	.	.	.	.	.	.
2ff/	4c\	.	2d\	.	4c/	.	2r	.	.	.	.	.	.	.	.	.	.	.	.	.	.	.	.	.	.	.	.	.	.	2r
.	4B-\	.	.	.	4B-/	.	.	.	.	.	.	.	.	.	.	.	.	.	.	.	.	.	.	.	.	.	.	.	.	.
=58	=58	=58	=58	=58	=58	=58	=58	=58	=58	=58	=58	=58	=58	=58	=58	=58	=58	=58	=58	=58	=58	=58	=58	=58	=58	=58	=58	=58	=58	=58
!	!	!	!	!	!	!	!LO:TX:a:t=3	!	!	!	!	!	!	!	!	!	!	!	!	!	!	!	!	!	!	!	!	!	!	!LO:TX:a:t=7.
2dd/	4r	.	2f\	.	4r	.	0r	.	00r	.	00r	.	00r	.	.	2dd\	-czney	00r	.	00r	.	00r	.	00r	.	00r	.	00r	.	00r
.	4b-\	.	.	.	4b-\	.	.	.	.	.	.	.	.	.	.	.	.	.	.	.	.	.	.	.	.	.	.	.	.	.
!LO:LB:g=original	!	!	!	!	!	!	!	!	!	!	!	!	!	!	!	!	!	!	!	!	!	!	!	!	!	!	!	!	!	!
2b-/	4d\	.	2d\	.	4d/	.	.	.	.	.	.	.	.	.	.	2b-\	.	.	.	.	.	.	.	.	.	.	.	.	.	.
.	4f\	.	.	.	4f/	.	.	.	.	.	.	.	.	.	.	.	.	.	.	.	.	.	.	.	.	.	.	.	.	.
=59	=59	=59	=59	=59	=59	=59	=59	=59	=59	=59	=59	=59	=59	=59	=59	=59	=59	=59	=59	=59	=59	=59	=59	=59	=59	=59	=59	=59	=59	=59
2gg/	2e-\	.	2e-\	.	4ee-\	.	.	.	.	.	.	.	.	.	.	2gg\	chwa-	.	.	.	.	.	.	.	.	.	.	.	.	.
.	.	.	.	.	4e-/	.	.	.	.	.	.	.	.	.	.	.	.	.	.	.	.	.	.	.	.	.	.	.	.	.
4ee-/	4cc\	.	2c\	.	4c/	.	.	.	.	.	.	.	.	.	.	4ee-\	.	.	.	.	.	.	.	.	.	.	.	.	.	.
!	!	!	!	!	!LO:TX:a:t=h	!	!	!	!	!	!	!	!	!	!	!	!	!	!	!	!	!	!	!	!	!	!	!	!	!
4dd/	4b-\	.	.	.	4B-/	.	.	.	.	.	.	.	.	.	.	4dd\	.	.	.	.	.	.	.	.	.	.	.	.	.	.
=60	=60	=60	=60	=60	=60	=60	=60	=60	=60	=60	=60	=60	=60	=60	=60	=60	=60	=60	=60	=60	=60	=60	=60	=60	=60	=60	=60	=60	=60	=60
!	!	!	!	!	!LO:SIC:v:s=4An/	!	!	!	!	!	!	!	!	!	!	!	!	!	!	!	!	!	!	!	!	!	!	!	!	!
2cc/	4a-\	.	2f\	.	4A-/	.	1r	.	.	.	.	.	.	.	.	2cc\	-ły	.	.	.	.	.	.	.	.	.	.	.	.	.
.	4f\	.	.	.	4f/	.	.	.	.	.	.	.	.	.	.	.	.	.	.	.	.	.	.	.	.	.	.	.	.	.
2r	4c\	.	2r	.	4c/	.	.	.	.	.	.	.	.	.	.	2r	.	.	.	.	.	.	.	.	.	.	.	.	.	.
.	4f\	.	.	.	4f/	.	.	.	.	.	.	.	.	.	.	.	.	.	.	.	.	.	.	.	.	.	.	.	.	.
=61	=61	=61	=61	=61	=61	=61	=61	=61	=61	=61	=61	=61	=61	=61	=61	=61	=61	=61	=61	=61	=61	=61	=61	=61	=61	=61	=61	=61	=61	=61
!	!	!	!	!	!LO:SIC:v:s=4An/	!	!	!	!	!	!	!	!	!	!	!	!	!	!	!	!	!	!	!	!	!	!	!	!	!
2ee-/	4a-\	.	2f\	.	4A-/	.	2ee-\	.	.	.	.	.	.	.	.	2ee-\	Wie-	.	.	.	.	.	.	.	.	.	.	.	.	.
.	4f\	.	.	.	4f/	.	.	.	.	.	.	.	.	.	.	.	.	.	.	.	.	.	.	.	.	.	.	.	.	.
!	!	!	!	!	!LO:SIC:v:s=4an/	!	!	!	!	!	!	!	!	!	!	!	!	!	!	!	!	!	!	!	!	!	!	!	!	!
2ee-/	4f\	.	2f\	.	4a-/	.	2ee-\	.	.	.	.	.	.	.	.	2ee-\	-czney	.	.	.	.	.	.	.	.	.	.	.	.	.
.	4a-\	.	.	.	4f/	.	.	.	.	.	.	.	.	.	.	.	.	.	.	.	.	.	.	.	.	.	.	.	.	.
=62	=62	=62	=62	=62	=62	=62	=62	=62	=62	=62	=62	=62	=62	=62	=62	=62	=62	=62	=62	=62	=62	=62	=62	=62	=62	=62	=62	=62	=62	=62
4dd/	2b-\	.	2b-\	.	4b-\	.	4dd\	.	0r	.	0r	.	0r	.	.	4dd\	Chwa-	0r	.	0r	.	0r	.	0r	.	0r	.	0r	.	0r
4ff/	.	.	.	.	4d/	.	4ff\	.	.	.	.	.	.	.	.	4ff\	.	.	.	.	.	.	.	.	.	.	.	.	.	.
4b-/	2d\	.	2d\	.	4f/	.	2bb-\	.	.	.	.	.	.	.	.	4b-\	.	.	.	.	.	.	.	.	.	.	.	.	.	.
4dd/	.	.	.	.	4B-/	.	.	.	.	.	.	.	.	.	.	4dd\	.	.	.	.	.	.	.	.	.	.	.	.	.	.
=63	=63	=63	=63	=63	=63	=63	=63	=63	=63	=63	=63	=63	=63	=63	=63	=63	=63	=63	=63	=63	=63	=63	=63	=63	=63	=63	=63	=63	=63	=63
4cc/	2e-\	.	2e-\	.	4e-/	.	4cc\	.	.	.	.	.	.	.	.	4cc\	.	.	.	.	.	.	.	.	.	.	.	.	.	.
4ff/	.	.	.	.	4c/	.	4bb-\	.	.	.	.	.	.	.	.	4ee-\	.	.	.	.	.	.	.	.	.	.	.	.	.	.
4an/	2f\	.	2f\	.	4f/	.	4cc\	.	.	.	.	.	.	.	.	4an\	.	.	.	.	.	.	.	.	.	.	.	.	.	.
!	!	!	!	!	!	!	!LO:SIC:v:s=4aan\	!	!	!	!	!	!	!	!	!	!	!	!	!	!	!	!	!	!	!	!	!	!	!
4cc/	.	.	.	.	4e-/	.	4aa-\	.	.	.	.	.	.	.	.	4cc\	.	.	.	.	.	.	.	.	.	.	.	.	.	.
!	!	!	!	!	!	!	!	!	!	!	!	!	!	!	!	!LO:LB:g=original	!	!	!	!	!	!	!	!	!	!	!	!	!	!
=64	=64	=64	=64	=64	=64	=64	=64	=64	=64	=64	=64	=64	=64	=64	=64	=64	=64	=64	=64	=64	=64	=64	=64	=64	=64	=64	=64	=64	=64	=64
2b-/	2d\	.	2B-/	.	4d/	.	2bb-\	.	1r	.	1r	.	1r	.	.	2b-\	-ły	1r	.	1r	.	1r	.	1r	.	1r	.	1r	.	1r
.	.	.	.	.	4dd\	.	.	.	.	.	.	.	.	.	.	.	.	.	.	.	.	.	.	.	.	.	.	.	.	.
2rcc	2r	.	2r	.	4f/	.	2r	.	.	.	.	.	.	.	.	2r	.	.	.	.	.	.	.	.	.	.	.	.	.	.
.	.	.	.	.	4d/	.	.	.	.	.	.	.	.	.	.	.	.	.	.	.	.	.	.	.	.	.	.	.	.	.
*clefF4	*	*	*	*	*	*	*	*	*	*	*	*	*	*	*	*	*	*	*	*	*	*	*	*	*	*	*	*	*	*
*v	*v	*	*	*	*	*	*	*	*	*	*	*	*	*	*	*	*	*	*	*	*	*	*	*	*	*	*	*	*	*
!LO:LB:g=original	!	!LO:LB:g=original	!	!LO:LB:g=original	!	!	!	!LO:LB:g=original	!	!LO:LB:g=original	!	!LO:LB:g=original	!	!	!	!	!	!	!LO:LB:g=original	!	!LO:LB:g=original	!	!	!	!LO:LB:g=original	!	!	!	!LO:LB:g=original
=65	=65	=65	=65	=65	=65	=65	=65	=65	=65	=65	=65	=65	=65	=65	=65	=65	=65	=65	=65	=65	=65	=65	=65	=65	=65	=65	=65	=65	=65
!	!	!	!	!	!LO:DY:a	!	!	!	!	!	!	!	!	!	!	!	!	!	!	!	!	!	!	!	!	!	!	!	!
4r	.	8f\L	.	8B-/L	f	4ff\	.	1BB-	wie-	1B-	wie-	1a-X	wie-	.	1dd	wie-	1B-	.	1f	.	4r	.	1a-X	.	1ff	.	1aa-X	.	4fff\
.	.	8d\	.	8d/	.	.	.	.	.	.	.	.	.	.	.	.	.	.	.	.	.	.	.	.	.	.	.	.	.
4BB-/	.	8B-\	.	8f/	.	4dd\	.	.	.	.	.	.	.	.	.	.	.	.	.	.	4BB-/	.	.	.	.	.	.	.	4ddd\
.	.	8d\J	.	8d/J	.	.	.	.	.	.	.	.	.	.	.	.	.	.	.	.	.	.	.	.	.	.	.	.	.
*	*	*	*	*rep	*	*	*	*	*	*	*	*	*	*	*	*	*	*	*	*	*	*	*	*	*	*	*	*	*
4D/	.	8f\L	.	8B-/L	.	4b-\	.	.	.	.	.	.	.	.	.	.	.	.	.	.	4D/	.	.	.	.	.	.	.	4bb-\
.	.	8B-\	.	8d/	.	.	.	.	.	.	.	.	.	.	.	.	.	.	.	.	.	.	.	.	.	.	.	.	.
4BB-/	.	8d\	.	8f/	.	4a-X\	.	.	.	.	.	.	.	.	.	.	.	.	.	.	4BB-/	.	.	.	.	.	.	.	4aa-X\
.	.	8B-\J	.	8d/J	.	.	.	.	.	.	.	.	.	.	.	.	.	.	.	.	.	.	.	.	.	.	.	.	.
*	*	*	*	*Xrep	*	*	*	*	*	*	*	*	*	*	*	*	*	*	*	*	*	*	*	*	*	*	*	*	*
=66	=66	=66	=66	=66	=66	=66	=66	=66	=66	=66	=66	=66	=66	=66	=66	=66	=66	=66	=66	=66	=66	=66	=66	=66	=66	=66	=66	=66	=66
2E-\	.	8g\L	.	8B-/L	.	4g/	.	1E-	-czney	1B-	-czney	1g	-czney	.	1ee-	-czney	4e-\	.	2g\	.	2E-\	.	1g	.	1ee-	.	1gg	.	4gg\
.	.	8B-\	.	8e-/	.	.	.	.	.	.	.	.	.	.	.	.	.	.	.	.	.	.	.	.	.	.	.	.	.
.	.	8e-\	.	8g/	.	4b-/	.	.	.	.	.	.	.	.	.	.	4e-\	.	.	.	.	.	.	.	.	.	.	.	4bb-\
.	.	8B-\J	.	8e-/J	.	.	.	.	.	.	.	.	.	.	.	.	.	.	.	.	.	.	.	.	.	.	.	.	.
*	*	*	*	*rep	*	*	*	*	*	*	*	*	*	*	*	*	*	*	*	*	*	*	*	*	*	*	*	*	*
2r	.	8g\L	.	8B-/L	.	4ee-\	.	.	.	.	.	.	.	.	.	.	2e-\	.	4g\	.	2r	.	.	.	.	.	.	.	4eee-\
.	.	8B-\	.	8e-/	.	.	.	.	.	.	.	.	.	.	.	.	.	.	.	.	.	.	.	.	.	.	.	.	.
.	.	8e-\	.	8g/	.	4gg\	.	.	.	.	.	.	.	.	.	.	.	.	4g\	.	.	.	.	.	.	.	.	.	4ggg\
.	.	8B-\J	.	8e-/J	.	.	.	.	.	.	.	.	.	.	.	.	.	.	.	.	.	.	.	.	.	.	.	.	.
*	*	*	*	*Xrep	*	*	*	*	*	*	*	*	*	*	*	*	*	*	*	*	*	*	*	*	*	*	*	*	*
!	!	!	!	!	!	!	!	!	!	!	!	!	!	!	!	!	!	!	!	!	!	!	!	!	!	!	!LO:LB:g=original	!	!
=67	=67	=67	=67	=67	=67	=67	=67	=67	=67	=67	=67	=67	=67	=67	=67	=67	=67	=67	=67	=67	=67	=67	=67	=67	=67	=67	=67	=67	=67
2BB-/	.	8f\L	.	8B-/L	.	4ff\	.	[1BB-	Chwa-	[y1B-	Chwa-	[y1a-X	Chwa-	.	[y1dd	Chwa-	1B-	.	1f	.	2BB-/	.	1a-X	.	[1dd	.	2.aa-\	.	4fff\
.	.	8B-\	.	8d/	.	.	.	.	.	.	.	.	.	.	.	.	.	.	.	.	.	.	.	.	.	.	.	.	.
.	.	8d\	.	8f/	.	4dd\	.	.	.	.	.	.	.	.	.	.	.	.	.	.	.	.	.	.	.	.	.	.	4ddd\
.	.	8B-\J	.	8d/J	.	.	.	.	.	.	.	.	.	.	.	.	.	.	.	.	.	.	.	.	.	.	.	.	.
*	*	*	*	*rep	*	*	*	*	*	*	*	*	*	*	*	*	*	*	*	*	*	*	*	*	*	*	*	*	*
4D/	.	8f\L	.	8B-/L	.	4b-\	.	.	.	.	.	.	.	.	.	.	.	.	.	.	4D/	.	.	.	.	.	.	.	4bb-\
.	.	8B-\	.	8d/	.	.	.	.	.	.	.	.	.	.	.	.	.	.	.	.	.	.	.	.	.	.	.	.	.
4BB-/	.	8d\	.	8f/	.	4a-\	.	.	.	.	.	.	.	.	.	.	.	.	.	.	4BB-/	.	.	.	.	.	4ff\	.	4aa-X\
.	.	8B-\J	.	8d/J	.	.	.	.	.	.	.	.	.	.	.	.	.	.	.	.	.	.	.	.	.	.	.	.	.
*	*	*	*	*Xrep	*	*	*	*	*	*	*	*	*	*	*	*	*	*	*	*	*	*	*	*	*	*	*	*	*
!	!	!	!	!	!	!	!	!	!	!	!	!	!	!	!	!	!	!	!	!	!LO:LB:g=original	!	!	!	!	!	!	!	!
=68	=68	=68	=68	=68	=68	=68	=68	=68	=68	=68	=68	=68	=68	=68	=68	=68	=68	=68	=68	=68	=68	=68	=68	=68	=68	=68	=68	=68	=68
!	!	!	!	!	!	!	!	!	!	!LO:N:xstem:cue:vis=4	!	!LO:N:xstem:cue:vis=4	!	!	!LO:N:xstem:cue:vis=4	!	!	!	!	!	!	!	!	!	!LO:N:xstem:cue:vis=4	!	!	!	!
2E-\	.	8f\L	.	8B-/L	.	2a-/	.	2BB-/]	.	2B-\]	.	2a-\]	.	.	2dd\]	.	2B-/	.	2f\	.	2E-\	.	2f/	.	2dd\]	.	2ff\	.	2aa-X\
.	.	8B-\	.	8d/	.	.	.	.	.	.	.	.	.	.	.	.	.	.	.	.	.	.	.	.	.	.	.	.	.
.	.	8d\	.	8f/	.	.	.	.	.	.	.	.	.	.	.	.	.	.	.	.	.	.	.	.	.	.	.	.	.
.	.	8B-\J	.	8d/J	.	.	.	.	.	.	.	.	.	.	.	.	.	.	.	.	.	.	.	.	.	.	.	.	.
2E-\	.	8g\L	.	8B-/L	.	2g/	.	2E-\	-ły	2B-\	-ły	2g\	-ły	.	2ee-\	-łey	2G/	.	2g\	.	2E-\	.	2g/	.	2ee-\	.	2ee-\	.	2gg\
.	.	8B-\	.	8e-/	.	.	.	.	.	.	.	.	.	.	.	.	.	.	.	.	.	.	.	.	.	.	.	.	.
.	.	8e-\	.	8g/	.	.	.	.	.	.	.	.	.	.	.	.	.	.	.	.	.	.	.	.	.	.	.	.	.
.	.	8c\J	.	8e-/J	.	.	.	.	.	.	.	.	.	.	.	.	.	.	.	.	.	.	.	.	.	.	.	.	.
!	!	!	!	!	!	!	!	!	!	!	!	!LO:LB:g=original	!	!	!	!	!	!	!	!	!	!	!	!	!	!	!	!	!
=69	=69	=69	=69	=69	=69	=69	=69	=69	=69	=69	=69	=69	=69	=69	=69	=69	=69	=69	=69	=69	=69	=69	=69	=69	=69	=69	=69	=69	=69
*	*	*	*	*	*	*	*	*	*	*	*ij	*	*ij	*	*	*	*	*	*	*	*	*	*	*	*	*	*	*	*
!	!	!LO:TX:t=P:problem:mixed beam	!	!	!	!	!	!	!	!	!	!	!	!	!	!	!LO:TX:a:t=2	!	!LO:TX:a:t=2	!	!	!	!	!	!	!	!	!	!
2E-\	.	8e-\L	.	8G/L	.	(4dd-X\	.	2G\	nie	2B-\	wiecz-	2g\	wiecz-	.	2dd-X\	wie-	0r	.	0r	.	2E-\	.	2a-/	.	2dd-X\	.	1bb-	.	4ddd-X\
.	.	8G/	.	8B-/	.	.	.	.	.	.	.	.	.	.	.	.	.	.	.	.	.	.	.	.	.	.	.	.	.
.	.	8B-/	.	8e-/	.	4b-\)	.	.	.	.	.	.	.	.	.	.	.	.	.	.	.	.	.	.	.	.	.	.	4bb-\
.	.	8G/J	.	8B-/J	.	.	.	.	.	.	.	.	.	.	.	.	.	.	.	.	.	.	.	.	.	.	.	.	.
*	*	*	*	*rep	*	*	*	*	*	*	*	*	*	*	*	*	*	*	*	*	*	*	*	*	*	*	*	*	*
!	!	!LO:TX:t=P:problem:mixed beam	!	!	!	!	!	!	!	!	!	!	!	!	!	!	!	!	!	!	!	!	!	!	!	!	!	!	!
4G\	.	8e-\L	.	8G/L	.	(4ee-\	.	2E-\	tra-	2B-\	-ney	2g\	-ney	.	2dd-\	-czney	.	.	.	.	4G\	.	2a-/	.	2dd-\	.	.	.	4eee-\
.	.	8G/	.	8B-/	.	.	.	.	.	.	.	.	.	.	.	.	.	.	.	.	.	.	.	.	.	.	.	.	.
4E-\	.	8B-/	.	8e-/	.	4dd-\)	.	.	.	.	.	.	.	.	.	.	.	.	.	.	4E-\	.	.	.	.	.	.	.	4ddd-X\
.	.	8G/J	.	8B-/J	.	.	.	.	.	.	.	.	.	.	.	.	.	.	.	.	.	.	.	.	.	.	.	.	.
*	*	*	*	*Xrep	*	*	*	*	*	*	*	*	*	*	*	*	*	*	*	*	*	*	*	*	*	*	*	*	*
!	!	!	!	!	!	!LO:LB:g=original	!	!	!	!	!	!	!	!	!	!	!	!	!	!	!	!	!LO:LB:g=original	!	!	!	!	!	!
=70	=70	=70	=70	=70	=70	=70	=70	=70	=70	=70	=70	=70	=70	=70	=70	=70	=70	=70	=70	=70	=70	=70	=70	=70	=70	=70	=70	=70	=70
!	!	!LO:TX:t=P:problem:mixed beam	!	!	!	!LO:SIC:v:s=(4dd-\	!	!	!	!	!	!	!	!	!LO:SIC:v:s=2dd-\	!	!	!	!	!	!	!	!	!	!LO:SIC:v:s=2dd-\	!	!	!	!LO:SIC:v:s=(4ddd-\
4A-\	.	8e-\L	.	8A-/L	.	(4dd\	.	2A-\	.	2B-\	Chwa-	2g\	Chwa-	.	2dd\	chwa-	.	.	.	.	4A-\	.	2g/	.	2dd\	.	2bb-\	.	(4ddd\
.	.	8A-/	.	8c/	.	.	.	.	.	.	.	.	.	.	.	.	.	.	.	.	.	.	.	.	.	.	.	.	.
4AA-/	.	8c/	.	8e-/	.	4b-\)	.	.	.	.	.	.	.	.	.	.	.	.	.	.	4AA-/	.	.	.	.	.	.	.	4bb-\)
.	.	8A-/J	.	8c/J	.	.	.	.	.	.	.	.	.	.	.	.	.	.	.	.	.	.	.	.	.	.	.	.	.
*	*	*	*	*rep	*	*	*	*	*	*	*	*	*	*	*	*	*	*	*	*	*	*	*	*	*	*	*	*	*
!	!	!LO:LB:g=original	!	!	!	!	!	!	!	!	!	!	!	!	!	!	!	!	!	!	!	!	!	!	!	!	!	!	!
!	!	!LO:TX:t=P:problem:mixed beam	!	!	!	!	!	!	!	!	!	!	!	!	!	!	!	!	!	!	!	!	!	!	!	!	!	!	!
4C/	.	8e-\L	.	8A-/L	.	2cc\	.	2AA-/	.	2c\	-ły	2a-\	-ły	.	2cc\	-łey	.	.	.	.	4C/	.	2a-/	.	2cc\	.	2aa-\	.	2ccc\
*	*	*	*	*	*	*	*	*	*	*	*Xij	*	*Xij	*	*	*	*	*	*	*	*	*	*	*	*	*	*	*	*
.	.	8A-/	.	8c/	.	.	.	.	.	.	.	.	.	.	.	.	.	.	.	.	.	.	.	.	.	.	.	.	.
4AA-/	.	8c/	.	8e-/	.	.	.	.	.	.	.	.	.	.	.	.	.	.	.	.	4AA-/	.	.	.	.	.	.	.	.
.	.	8A-/J	.	8c/J	.	.	.	.	.	.	.	.	.	.	.	.	.	.	.	.	.	.	.	.	.	.	.	.	.
*	*	*	*	*Xrep	*	*	*	*	*	*	*	*	*	*	*	*	*	*	*	*	*	*	*	*	*	*	*	*	*
!	!	!	!	!	!	!	!	!LO:PB:g=original	!	!	!	!	!	!	!	!	!	!	!	!	!	!	!	!	!	!	!	!	!
=71	=71	=71	=71	=71	=71	=71	=71	=71	=71	=71	=71	=71	=71	=71	=71	=71	=71	=71	=71	=71	=71	=71	=71	=71	=71	=71	=71	=71	=71
!	!	!LO:TX:t=P:problem:mixed beam	!	!	!	!	!	!	!	!	!	!	!	!	!	!	!	!	!	!	!	!	!	!	!	!	!	!	!
2F\	.	8f\L	.	8An/L	.	4ee-\	.	2F\	-ci	2c\	A-	2an\	A-	.	2ee-\	A-	2f\	.	2f\	.	2F\	.	2an/	.	2ee-\	.	2ccc\	.	4eee-\
.	.	8An/	.	8c/	.	.	.	.	.	.	.	.	.	.	.	.	.	.	.	.	.	.	.	.	.	.	.	.	.
.	.	8c/	.	8f/	.	4cc\	.	.	.	.	.	.	.	.	.	.	.	.	.	.	.	.	.	.	.	.	.	.	4ccc\
.	.	8A/J	.	8c/J	.	.	.	.	.	.	.	.	.	.	.	.	.	.	.	.	.	.	.	.	.	.	.	.	.
*	*	*	*	*rep	*	*	*	*	*	*	*	*	*	*	*	*	*	*	*	*	*	*	*	*	*	*	*	*	*
!	!	!LO:TX:t=P:problem:mixed beam	!	!	!	!	!	!	!	!	!	!	!	!	!	!	!	!	!	!	!	!	!	!	!	!	!	!	!
4An\	.	8f\L	.	8A/L	.	(4ff\	.	2F\	nie	2c\	-men	2a\	-men	.	2ee-\	-men	4f\	.	4f\	.	4An\	.	2a/	.	2ee-\	.	2ccc\	.	4fff\
.	.	8A/	.	8c/	.	.	.	.	.	.	.	.	.	.	.	.	.	.	.	.	.	.	.	.	.	.	.	.	.
4F\	.	8c/	.	8f/	.	4ee-\)	.	.	.	.	.	.	.	.	.	.	4f\	.	4f\	.	4F\	.	.	.	.	.	.	.	4eee-\
.	.	8A/J	.	8c/J	.	.	.	.	.	.	.	.	.	.	.	.	.	.	.	.	.	.	.	.	.	.	.	.	.
*	*	*	*	*Xrep	*	*	*	*	*	*	*	*	*	*	*	*	*	*	*	*	*	*	*	*	*	*	*	*	*
!	!	!	!	!LO:LB:g=original	!	!	!	!	!	!	!	!	!	!	!	!	!LO:LB:g=original	!	!	!	!	!	!	!	!	!	!	!	!
=72	=72	=72	=72	=72	=72	=72	=72	=72	=72	=72	=72	=72	=72	=72	=72	=72	=72	=72	=72	=72	=72	=72	=72	=72	=72	=72	=72	=72	=72
*	*	*	*	*	*	*	*	*	*	*	*	*	*	*	*	*ij	*	*	*	*	*	*	*	*	*	*	*	*	*
!	!	!LO:TX:t=P:problem:mixed beam	!	!	!	!	!	!	!	!	!	!LO:SIC:v:s=2an\	!	!	!	!	!	!	!	!	!	!	!LO:SIC:v:s=2an/	!	!	!	!	!	!
4B-\	.	8f\L	.	8B-/L	.	4ee-\	.	2B-\	tra-	2c\	A-	2a-\	A-	.	2ee-\	A-	2f\	.	2f\	.	4B-\	.	2a-/	.	2ee-\	.	2ccc\	.	4eee-\
.	.	8B-/	.	8d/	.	.	.	.	.	.	.	.	.	.	.	.	.	.	.	.	.	.	.	.	.	.	.	.	.
4BB-/	.	8d/	.	8f/	.	4cc\	.	.	.	.	.	.	.	.	.	.	.	.	.	.	4BB-/	.	.	.	.	.	.	.	4ccc\
.	.	8B-/J	.	8d/J	.	.	.	.	.	.	.	.	.	.	.	.	.	.	.	.	.	.	.	.	.	.	.	.	.
*	*	*	*	*rep	*	*	*	*	*	*	*	*	*	*	*	*	*	*	*	*	*	*	*	*	*	*	*	*	*
!	!	!LO:TX:t=P:problem:mixed beam	!	!	!	!	!	!	!	!	!	!	!	!	!	!	!	!	!	!	!	!	!	!	!	!	!	!	!
4D/	.	8f\L	.	8B-/L	.	2ddn\	.	2BB-/	-ci	2d\	-men	2b-\	-men	.	2ddn\	-men	2B-/	.	2f\	.	4D/	.	2b-/	.	2ddn\	.	2bb-\	.	2dddn\
*	*	*	*	*	*	*	*	*	*	*	*	*	*	*	*	*Xij	*	*	*	*	*	*	*	*	*	*	*	*	*
.	.	8B-/	.	8d/	.	.	.	.	.	.	.	.	.	.	.	.	.	.	.	.	.	.	.	.	.	.	.	.	.
4BB-/	.	8d/	.	8f/	.	.	.	.	.	.	.	.	.	.	.	.	.	.	.	.	4BB-/	.	.	.	.	.	.	.	.
.	.	8B-/J	.	8d/J	.	.	.	.	.	.	.	.	.	.	.	.	.	.	.	.	.	.	.	.	.	.	.	.	.
*	*	*	*	*Xrep	*	*	*	*	*	*	*	*	*	*	*	*	*	*	*	*	*	*	*	*	*	*	*	*	*
!LO:LB:g=original	!	!	!	!	!	!	!	!	!	!LO:LB:g=original	!	!	!	!	!	!	!	!	!	!	!	!	!	!	!	!	!	!	!
=73	=73	=73	=73	=73	=73	=73	=73	=73	=73	=73	=73	=73	=73	=73	=73	=73	=73	=73	=73	=73	=73	=73	=73	=73	=73	=73	=73	=73	=73
!	!	!LO:TX:t=P:problem:mixed beam	!	!	!	!	!	!	!	!LO:TX:a:t=2	!	!LO:TX:a:t=2	!	!	!LO:TX:a:t=2	!	!	!	!	!	!	!	!LO:TX:a:t=2	!	!LO:TX:a:t=2.	!	!	!	!
2BB-/	.	8f\L	.	8B-/L	.	4ee-\	.	0r	.	0r	.	0r	.	.	0r	.	4B-/	.	4f\	.	2BB-/	.	0r	.	0r	.	4dd\	.	4fff\
.	.	8B-/	.	8d/	.	.	.	.	.	.	.	.	.	.	.	.	.	.	.	.	.	.	.	.	.	.	.	.	.
.	.	8d/	.	8f/	.	4dd\	.	.	.	.	.	.	.	.	.	.	8B-/L	.	8f\L	.	.	.	.	.	.	.	2ff\	.	4ddd\
.	.	8B-/J	.	8d/J	.	.	.	.	.	.	.	.	.	.	.	.	8B-/J	.	8f\J	.	.	.	.	.	.	.	.	.	.
*	*	*	*	*rep	*	*	*	*	*	*	*	*	*	*	*	*	*	*	*	*	*	*	*	*	*	*	*	*	*
!	!	!LO:TX:t=P:problem:mixed beam	!	!	!	!	!	!	!	!	!	!	!	!	!	!	!	!	!	!	!	!	!	!	!	!	!	!	!
4r	.	8f\L	.	8B-/L	.	4b-\	.	.	.	.	.	.	.	.	.	.	4B-/	.	4f\	.	4r	.	.	.	.	.	.	.	4bb-\
.	.	8B-/	.	8d/	.	.	.	.	.	.	.	.	.	.	.	.	.	.	.	.	.	.	.	.	.	.	.	.	.
4BB-/	.	8d/	.	8f/	.	4a-\	.	.	.	.	.	.	.	.	.	.	4B-/	.	4f\	.	4BB-/	.	.	.	.	.	4dd\	.	4aa-\
.	.	8B-/J	.	8d/J	.	.	.	.	.	.	.	.	.	.	.	.	.	.	.	.	.	.	.	.	.	.	.	.	.
*	*	*	*	*Xrep	*	*	*	*	*	*	*	*	*	*	*	*	*	*	*	*	*	*	*	*	*	*	*	*	*
=74	=74	=74	=74	=74	=74	=74	=74	=74	=74	=74	=74	=74	=74	=74	=74	=74	=74	=74	=74	=74	=74	=74	=74	=74	=74	=74	=74	=74	=74
!	!	!LO:TX:t=P:problem:mixed beam	!	!	!	!	!	!	!	!	!	!	!	!	!	!	!	!	!	!	!	!	!	!	!	!	!	!	!
2E-\	.	8g\L	.	8B-/L	.	4g/	.	.	.	.	.	.	.	.	.	.	2e-\	.	2g\	.	2E-\	.	.	.	.	.	4ee-\	.	4gg\
.	.	8B-/	.	8e-/	.	.	.	.	.	.	.	.	.	.	.	.	.	.	.	.	.	.	.	.	.	.	.	.	.
.	.	8e-/	.	8g/	.	4b-/	.	.	.	.	.	.	.	.	.	.	.	.	.	.	.	.	.	.	.	.	2gg\	.	4bb-\
.	.	8B-/J	.	8e-/J	.	.	.	.	.	.	.	.	.	.	.	.	.	.	.	.	.	.	.	.	.	.	.	.	.
*	*	*	*	*rep	*	*	*	*	*	*	*	*	*	*	*	*	*	*	*	*	*	*	*	*	*	*	*	*	*
!	!	!LO:TX:t=P:problem:mixed beam	!	!	!	!	!	!	!	!	!	!	!	!	!	!	!	!	!	!	!	!	!	!	!	!	!	!	!
2G\	.	8g\L	.	8B-/L	.	4ee-\	.	.	.	.	.	.	.	.	.	.	4r	.	4r	.	2G\	.	.	.	.	.	.	.	4ggg\
.	.	8B-/	.	8e-/	.	.	.	.	.	.	.	.	.	.	.	.	.	.	.	.	.	.	.	.	.	.	.	.	.
.	.	8e-/	.	8g/	.	4dd\	.	.	.	.	.	.	.	.	.	.	4e-\	.	4g\	.	.	.	.	.	.	.	4gg\	.	4bb-\
.	.	8B-/J	.	8e-/J	.	.	.	.	.	.	.	.	.	.	.	.	.	.	.	.	.	.	.	.	.	.	.	.	.
*	*	*	*	*Xrep	*	*	*	*	*	*	*	*	*	*	*	*	*	*	*	*	*	*	*	*	*	*	*	*	*
!	!	!	!	!	!	!	!	!	!	!	!	!	!	!	!	!	!	!	!	!	!	!	!	!	!	!	!	!	!LO:LB:g=original
=75	=75	=75	=75	=75	=75	=75	=75	=75	=75	=75	=75	=75	=75	=75	=75	=75	=75	=75	=75	=75	=75	=75	=75	=75	=75	=75	=75	=75	=75
!	!	!LO:TX:t=P:problem:mixed beam	!	!	!	!	!	!	!	!	!	!	!	!	!	!	!	!	!	!	!	!	!	!	!	!	!	!	!
4F\	.	8f\L	.	8B-/L	.	4a-/	.	2BB-/	A-	2A-/	nie	2f\	nie	.	2dd\	nie	2B-/	.	2f\	.	4F\	.	(2dd\	.	2aa-\	.	4ff\	.	4aa-\
.	.	8B-/	.	8d/	.	.	.	.	.	.	.	.	.	.	.	.	.	.	.	.	.	.	.	.	.	.	.	.	.
4D\	.	8d/	.	8f/	.	4ff\	.	.	.	.	.	.	.	.	.	.	.	.	.	.	4D\	.	.	.	.	.	4aa-\	.	4fff\
.	.	8B-/J	.	8d/J	.	.	.	.	.	.	.	.	.	.	.	.	.	.	.	.	.	.	.	.	.	.	.	.	.
!	!	!LO:TX:t=P:problem:mixed beam	!	!	!	!	!	!	!	!	!	!	!	!	!	!	!	!	!	!	!	!	!	!	!	!	!	!	!
4E-\	.	8g\L	.	8B-/L	.	4ee-\	.	2E-\	.	2G/	tra-	2g\	tra-	.	2ee-\	tra-	2e-\	.	2g\	.	4E-\	.	2ee-\)	.	2gg\	.	4gg\	.	4eee-\
.	.	8B-/	.	8g/	.	.	.	.	.	.	.	.	.	.	.	.	.	.	.	.	.	.	.	.	.	.	.	.	.
4G\	.	8g\	.	8e-/	.	4g/	.	.	.	.	.	.	.	.	.	.	.	.	.	.	4G\	.	.	.	.	.	4ee-\	.	4gg\
.	.	8B-/J	.	8B-/J	.	.	.	.	.	.	.	.	.	.	.	.	.	.	.	.	.	.	.	.	.	.	.	.	.
=76	=76	=76	=76	=76	=76	=76	=76	=76	=76	=76	=76	=76	=76	=76	=76	=76	=76	=76	=76	=76	=76	=76	=76	=76	=76	=76	=76	=76	=76
2B-\	.	2B-/	.	2d/	.	2f/	.	2BB-/	-men	2B-\	-ci	2f\	-ci	.	2dd\	-ci	2B-/	.	2f\	.	2B-\	.	2dd\	.	2ff\	.	2dd\	.	2ff\
2F\	.	2b-\	.	2d/	.	2b-/	.	2r	.	2r	.	2r	.	.	2r	.	2B-/	.	2f\	.	2F\	.	2dd\	.	2ff\	.	2dd\	.	2bb-\
!	!	!	!	!	!	!	!	!	!	!	!	!	!	!	!	!	!	!	!LO:LB:g=original	!	!	!	!	!	!	!	!	!	!
=77	=77	=77	=77	=77	=77	=77	=77	=77	=77	=77	=77	=77	=77	=77	=77	=77	=77	=77	=77	=77	=77	=77	=77	=77	=77	=77	=77	=77	=77
!	!	!	!	!	!	!	!	!	!	!	!	!LO:TX:a:t=1	!	!	!LO:TX:a:t=1	!	!	!	!	!	!	!	!	!	!	!	!	!	!
2BB-/	.	2B-/	.	2d/	.	2b-\	.	1r	.	1r	.	1r	.	.	1r	.	2B-/	.	2f\	.	2BB-/	.	2dd\	.	2ff\	.	2dd\	.	2bb-\
2r	.	2r	.	2r	.	2r	.	.	.	.	.	.	.	.	.	.	2r	.	2r	.	2r	.	2r	.	2r	.	2r	.	2r
=78	=78	=78	=78	=78	=78	=78	=78	=78	=78	=78	=78	=78	=78	=78	=78	=78	=78	=78	=78	=78	=78	=78	=78	=78	=78	=78	=78	=78	=78
!	!	!	!	!	!	!LO:TX:t=P:problem:mixed beam	!	!	!	!	!	!	!	!	!	!	!	!	!	!	!	!	!	!	!	!	!	!	!
2BB-/	.	8f\L	.	8a-/L	.	8d/L	.	1B-	A-	1A-	wie-	1f	wie-	.	1dd	wie-	1B-	.	1f	.	2BB-/	.	1a-X	.	1dd	.	4r	.	1bb-TT
.	.	8B-\	.	8f/	.	8b-\	.	.	.	.	.	.	.	.	.	.	.	.	.	.	.	.	.	.	.	.	.	.	.
.	.	8f\	.	8a-/	.	8aa-\	.	.	.	.	.	.	.	.	.	.	.	.	.	.	.	.	.	.	.	.	4ff\	.	.
.	.	8B-\J	.	8f/J	.	8b-\J	.	.	.	.	.	.	.	.	.	.	.	.	.	.	.	.	.	.	.	.	.	.	.
*	*	*	*	*rep	*	*	*	*	*	*	*	*	*	*	*	*	*	*	*	*	*	*	*	*	*	*	*	*	*
!	!	!	!	!	!	!LO:TX:t=P:problem:mixed beam	!	!	!	!	!	!	!	!	!	!	!	!	!	!	!	!	!	!	!	!	!	!	!
2r	.	8f\L	.	8a-/L	.	8d/L	.	.	.	.	.	.	.	.	.	.	.	.	.	.	2r	.	.	.	.	.	4aa-\	.	.
.	.	8B-\	.	8f/	.	8b-\	.	.	.	.	.	.	.	.	.	.	.	.	.	.	.	.	.	.	.	.	.	.	.
.	.	8f\	.	8a-/	.	8ff\	.	.	.	.	.	.	.	.	.	.	.	.	.	.	.	.	.	.	.	.	4ff\	.	.
.	.	8B-\J	.	8f/J	.	8b-\J	.	.	.	.	.	.	.	.	.	.	.	.	.	.	.	.	.	.	.	.	.	.	.
*	*	*	*	*Xrep	*	*	*	*	*	*	*	*	*	*	*	*	*	*	*	*	*	*	*	*	*	*	*	*	*
!	!	!	!	!	!	!	!	!	!	!	!	!	!	!	!	!	!	!	!	!	!LO:LB:g=original	!	!	!	!	!	!	!	!
=79	=79	=79	=79	=79	=79	=79	=79	=79	=79	=79	=79	=79	=79	=79	=79	=79	=79	=79	=79	=79	=79	=79	=79	=79	=79	=79	=79	=79	=79
!	!	!	!	!	!	!LO:TX:t=P:problem:mixed beam	!	!	!	!	!	!	!	!	!	!	!	!	!	!	!	!	!	!	!	!	!	!	!
2E-\	.	8e-\L	.	8g/L	.	8d/L	.	1G	.	1B-	-czny	1g	-czney	.	1ee-	-czney	1G	.	1e-	.	2E-\	.	1g	.	1ee-	.	4r	.	1bb-TTT
.	.	8B-\	.	8e-/	.	8b-\	.	.	.	.	.	.	.	.	.	.	.	.	.	.	.	.	.	.	.	.	.	.	.
.	.	8e-\	.	8g/	.	8gg\	.	.	.	.	.	.	.	.	.	.	.	.	.	.	.	.	.	.	.	.	4ee-\	.	.
.	.	8B-\J	.	8e-/J	.	8b-\J	.	.	.	.	.	.	.	.	.	.	.	.	.	.	.	.	.	.	.	.	.	.	.
*	*	*	*	*rep	*	*	*	*	*	*	*	*	*	*	*	*	*	*	*	*	*	*	*	*	*	*	*	*	*
!	!	!	!	!	!	!LO:TX:t=P:problem:mixed beam	!	!	!	!	!	!	!	!	!	!	!	!	!	!	!	!	!	!	!	!	!	!	!
2r	.	8e-\L	.	8g/L	.	8e-/L	.	.	.	.	.	.	.	.	.	.	.	.	.	.	2r	.	.	.	.	.	4gg\	.	.
.	.	8B-\	.	8e-/	.	8b-\	.	.	.	.	.	.	.	.	.	.	.	.	.	.	.	.	.	.	.	.	.	.	.
.	.	8e-\	.	8g/	.	8ff\	.	.	.	.	.	.	.	.	.	.	.	.	.	.	.	.	.	.	.	.	4ee-\	.	.
!	!	!LO:TX:b:i:t=Volti Citto Solo.	!	!	!	!	!	!	!	!	!	!	!	!	!	!	!	!	!	!	!	!	!	!	!	!	!	!	!
.	.	8B-\J	.	8e-/J	.	8b-\J	.	.	.	.	.	.	.	.	.	.	.	.	.	.	.	.	.	.	.	.	.	.	.
*	*	*	*	*Xrep	*	*	*	*	*	*	*	*	*	*	*	*	*	*	*	*	*	*	*	*	*	*	*	*	*
!	!	!LO:PB:g=original	!	!LO:LB:g=original	!	!	!	!	!	!	!	!	!	!	!	!	!	!	!	!	!	!	!	!	!	!	!	!	!
=80	=80	=80	=80	=80	=80	=80	=80	=80	=80	=80	=80	=80	=80	=80	=80	=80	=80	=80	=80	=80	=80	=80	=80	=80	=80	=80	=80	=80	=80
!	!	!	!	!	!	!LO:TX:t=P:problem:mixed beam	!	!	!	!	!	!	!	!	!	!	!	!	!	!	!	!	!	!	!	!	!	!	!
2B-\	.	8d\L	.	8f/L	.	8f/L	.	1D	.	1B-	Chwa-	1a-	chwa-	.	1ff	Chwa-	1B-	.	1f	.	2B-\	.	1ff	.	1aa-	.	4r	.	1bb-TTT
.	.	8B-\	.	8d/	.	8b-\	.	.	.	.	.	.	.	.	.	.	.	.	.	.	.	.	.	.	.	.	.	.	.
.	.	8d\	.	8f/	.	8ff\	.	.	.	.	.	.	.	.	.	.	.	.	.	.	.	.	.	.	.	.	4dd\	.	.
.	.	8B-\J	.	8d/J	.	8b-\J	.	.	.	.	.	.	.	.	.	.	.	.	.	.	.	.	.	.	.	.	.	.	.
*	*	*	*	*rep	*	*	*	*	*	*	*	*	*	*	*	*	*	*	*	*	*	*	*	*	*	*	*	*	*
2r	.	8d\L	.	8f/L	.	4f/	.	.	.	.	.	.	.	.	.	.	.	.	.	.	2r	.	.	.	.	.	4ff\	.	.
.	.	8B-\	.	8d/	.	.	.	.	.	.	.	.	.	.	.	.	.	.	.	.	.	.	.	.	.	.	.	.	.
.	.	8d\	.	8f/	.	4b-\	.	.	.	.	.	.	.	.	.	.	.	.	.	.	.	.	.	.	.	.	4dd\	.	.
.	.	8B-\J	.	8d/J	.	.	.	.	.	.	.	.	.	.	.	.	.	.	.	.	.	.	.	.	.	.	.	.	.
*	*	*	*	*Xrep	*	*	*	*	*	*	*	*	*	*	*	*	*	*	*	*	*	*	*	*	*	*	*	*	*
!	!	!	!	!	!	!LO:LB:g=original	!	!	!	!	!	!LO:LB:g=original	!	!	!LO:LB:g=original	!	!	!	!	!	!	!	!	!	!LO:LB:g=original	!	!	!	!
=81	=81	=81	=81	=81	=81	=81	=81	=81	=81	=81	=81	=81	=81	=81	=81	=81	=81	=81	=81	=81	=81	=81	=81	=81	=81	=81	=81	=81	=81
2E-\	.	8e-\L	.	8g/L	.	8g\L	.	1E-	-men	1B-	.	1g	.	.	1ee-	-ły	1e-	.	1g	.	2E-\	.	1ee-	.	1gg	.	4r	.	1bb-TTT
.	.	8B-\	.	8e-/	.	8b-\	.	.	.	.	.	.	.	.	.	.	.	.	.	.	.	.	.	.	.	.	.	.	.
.	.	8e-\	.	8g/	.	8gg\	.	.	.	.	.	.	.	.	.	.	.	.	.	.	.	.	.	.	.	.	4ee-\	.	.
.	.	8d\J	.	8e-/J	.	8b-\J	.	.	.	.	.	.	.	.	.	.	.	.	.	.	.	.	.	.	.	.	.	.	.
*	*	*	*	*rep	*	*	*	*	*	*	*	*	*	*	*	*	*	*	*	*	*	*	*	*	*	*	*	*	*
2r	.	8e-\L	.	8g/L	.	8g\L	.	.	.	.	.	.	.	.	.	.	.	.	.	.	2r	.	.	.	.	.	4gg\	.	.
.	.	8B-\	.	8e-/	.	8b-\	.	.	.	.	.	.	.	.	.	.	.	.	.	.	.	.	.	.	.	.	.	.	.
.	.	8e-\	.	8g/	.	8ee-\	.	.	.	.	.	.	.	.	.	.	.	.	.	.	.	.	.	.	.	.	4ee-\	.	.
.	.	8B-\J	.	8e-/J	.	8b-\J	.	.	.	.	.	.	.	.	.	.	.	.	.	.	.	.	.	.	.	.	.	.	.
*	*	*	*	*Xrep	*	*	*	*	*	*	*	*	*	*	*	*	*	*	*	*	*	*	*	*	*	*	*	*	*
=82	=82	=82	=82	=82	=82	=82	=82	=82	=82	=82	=82	=82	=82	=82	=82	=82	=82	=82	=82	=82	=82	=82	=82	=82	=82	=82	=82	=82	=82
!	!	!	!LO:DY:t=p&colon;:rj	!	!LO:DY:a	!LO:TX:t=P:problem:mixed beam	!LO:DY:a:rj	!	!	!	!	!	!	!	!	!	!	!	!	!	!	!LO:DY:t=p&colon;	!	!LO:DY:t=p&colon;	!	!LO:DY:t=p&colon;	!LO:TX:t=P:problem:takty nr 82-83 zapisane repetycją	!	!
2BB-/	p	8f\L	p	8a-/L	p	8d/L	p	1B-	A-	1A-	.	1f	.	.	1dd	nie	1B-	p	1f	p	2BB-/	p	1a-	p	1dd	p	4ryy	.	1bb-TTT
.	.	8B-\	.	8f/	.	8b-\	.	.	.	.	.	.	.	.	.	.	.	.	.	.	.	.	.	.	.	.	.	.	.
.	.	8f\	.	8a-/	.	8aa-\	.	.	.	.	.	.	.	.	.	.	.	.	.	.	.	.	.	.	.	.	4dd\yy	.	.
.	.	8B-\J	.	8f/J	.	8b-\J	.	.	.	.	.	.	.	.	.	.	.	.	.	.	.	.	.	.	.	.	.	.	.
*	*	*	*	*rep	*	*	*	*	*	*	*	*	*	*	*	*	*	*	*	*	*	*	*	*	*	*	*	*	*
!	!	!	!	!	!	!LO:TX:t=P:problem:mixed beam	!	!	!	!	!	!	!	!	!	!	!	!	!	!	!	!	!	!	!	!	!	!	!
2r	.	8f\L	.	8a-/L	.	8d/L	.	.	.	.	.	.	.	.	.	.	.	.	.	.	2r	.	.	.	.	.	4ff\yy	.	.
.	.	8B-\	.	8f/	.	8b-\	.	.	.	.	.	.	.	.	.	.	.	.	.	.	.	.	.	.	.	.	.	.	.
.	.	8f\	.	8a-/	.	8ff\	.	.	.	.	.	.	.	.	.	.	.	.	.	.	.	.	.	.	.	.	4dd\yy	.	.
.	.	8B-\J	.	8f/J	.	8b-\J	.	.	.	.	.	.	.	.	.	.	.	.	.	.	.	.	.	.	.	.	.	.	.
*	*	*	*	*Xrep	*	*	*	*	*	*	*	*	*	*	*	*	*	*	*	*	*	*	*	*	*	*	*	*	*
=83	=83	=83	=83	=83	=83	=83	=83	=83	=83	=83	=83	=83	=83	=83	=83	=83	=83	=83	=83	=83	=83	=83	=83	=83	=83	=83	=83	=83	=83
!	!	!	!	!	!	!LO:TX:t=P:problem:mixed beam	!	!	!	!	!	!	!	!	!	!	!	!	!	!	!	!	!	!	!	!	!	!	!
2E-\	.	8e-\L	.	8g/L	.	8e-/L	.	1G	.	1B-	.	1g	.	.	1ee-	tra-	1G	.	1e-	.	2E-\	.	1g	.	1ee-	.	4ryy	.	1bb-TTT
.	.	8B-\	.	8e-/	.	8b-\	.	.	.	.	.	.	.	.	.	.	.	.	.	.	.	.	.	.	.	.	.	.	.
.	.	8e-\	.	8g/	.	8gg\	.	.	.	.	.	.	.	.	.	.	.	.	.	.	.	.	.	.	.	.	4ee-\yy	.	.
.	.	8B-\J	.	8e-/J	.	8b-\J	.	.	.	.	.	.	.	.	.	.	.	.	.	.	.	.	.	.	.	.	.	.	.
*	*	*	*	*rep	*	*	*	*	*	*	*	*	*	*	*	*	*	*	*	*	*	*	*	*	*	*	*	*	*
!	!	!	!	!	!	!LO:TX:t=P:problem:mixed beam	!	!	!	!	!	!	!	!	!	!	!	!	!	!	!	!	!	!	!	!	!	!	!
2r	.	8e-\L	.	8g/L	.	8e-/L	.	.	.	.	.	.	.	.	.	.	.	.	.	.	2r	.	.	.	.	.	4gg\yy	.	.
.	.	8B-\	.	8e-/	.	8b-\	.	.	.	.	.	.	.	.	.	.	.	.	.	.	.	.	.	.	.	.	.	.	.
.	.	8e-\	.	8g/	.	8ee-\	.	.	.	.	.	.	.	.	.	.	.	.	.	.	.	.	.	.	.	.	4ee-\yy	.	.
.	.	8B-\J	.	8e-/J	.	8b-\J	.	.	.	.	.	.	.	.	.	.	.	.	.	.	.	.	.	.	.	.	.	.	.
*	*	*	*	*Xrep	*	*	*	*	*	*	*	*	*	*	*	*	*	*	*	*	*	*	*	*	*	*	*	*	*
!	!	!	!	!	!	!	!	!LO:LB:g=original	!	!	!	!	!	!	!	!	!	!	!	!	!	!	!	!	!	!	!LO:LB:g=original	!	!
=84	=84	=84	=84	=84	=84	=84	=84	=84	=84	=84	=84	=84	=84	=84	=84	=84	=84	=84	=84	=84	=84	=84	=84	=84	=84	=84	=84	=84	=84
!	!	!	!	!	!	!LO:TX:t=P:problem:mixed beam	!	!	!	!	!	!	!	!	!	!	!	!	!	!	!	!	!	!	!	!	!	!	!
2B-\	.	8d\L	.	8f/L	.	8f/L	.	1D	.	1B-	-ły	1a-	-ły	.	1ff	-ci	1B-	.	1f	.	2B-\	.	1ff	.	1aa-	.	4r	.	1bb-TTT
.	.	8B-\	.	8d/	.	8b-\	.	.	.	.	.	.	.	.	.	.	.	.	.	.	.	.	.	.	.	.	.	.	.
.	.	8d\	.	8f/	.	8ff\	.	.	.	.	.	.	.	.	.	.	.	.	.	.	.	.	.	.	.	.	4ff\	.	.
.	.	8B-\J	.	8d/J	.	8b-\J	.	.	.	.	.	.	.	.	.	.	.	.	.	.	.	.	.	.	.	.	.	.	.
*	*	*	*	*rep	*	*	*	*	*	*	*	*	*	*	*	*	*	*	*	*	*	*	*	*	*	*	*	*	*
!	!	!	!	!	!	!LO:TX:t=P:problem:mixed beam	!	!	!	!	!	!	!	!	!	!	!	!	!	!	!	!	!	!	!	!	!	!	!
2r	.	8d\L	.	8f/L	.	8f/L	.	.	.	.	.	.	.	.	.	.	.	.	.	.	2r	.	.	.	.	.	4dd\	.	.
.	.	8B-\	.	8d/	.	8b-\	.	.	.	.	.	.	.	.	.	.	.	.	.	.	.	.	.	.	.	.	.	.	.
.	.	8d\	.	8f/	.	8dd\	.	.	.	.	.	.	.	.	.	.	.	.	.	.	.	.	.	.	.	.	4ff\	.	.
.	.	8B-\J	.	8d/J	.	8b-\J	.	.	.	.	.	.	.	.	.	.	.	.	.	.	.	.	.	.	.	.	.	.	.
*	*	*	*	*Xrep	*	*	*	*	*	*	*	*	*	*	*	*	*	*	*	*	*	*	*	*	*	*	*	*	*
=85	=85	=85	=85	=85	=85	=85	=85	=85	=85	=85	=85	=85	=85	=85	=85	=85	=85	=85	=85	=85	=85	=85	=85	=85	=85	=85	=85	=85	=85
!	!LO:DY:t=fr.	!	!	!	!	!	!	!	!	!	!	!	!	!	!	!	!	!	!	!	!	!	!	!	!	!LO:DY:t=for&colon;	!	!	!
4r	f	8e-\L	.	4g/	.	4e-/	.	2E-\	.	2B-\	nie	2g\	nie	.	2ee-\	a-	1e-	f	1g	f	4r	.	2ee-\	.	2gg\	f	2gg\	.	(2bb-\
.	.	8B-\	.	.	.	.	.	.	.	.	.	.	.	.	.	.	.	.	.	.	.	.	.	.	.	.	.	.	.
!	!	!	!	!	!	!	!	!	!	!	!	!	!	!	!	!	!	!	!	!	!	!LO:DY:t=for&colon;	!	!	!	!	!	!	!
4E-\	.	8e-\	.	8ee-\L	.	(8ee-\L	.	.	.	.	.	.	.	.	.	.	.	.	.	.	4E-\	f	.	.	.	.	.	.	.
.	.	8B-\J	.	8dd\J	.	8dd\J)	.	.	.	.	.	.	.	.	.	.	.	.	.	.	.	.	.	.	.	.	.	.	.
!	!	!	!	!LO:TX:t=P:problem:mixed beam	!	!LO:TX:t=P:problem:mixed beam	!	!	!	!	!	!	!	!	!	!	!	!	!	!	!	!	!	!LO:DY:t=for&colon;	!	!	!	!	!
4G\	.	8g\L	.	8ee-\L	.	8ee-\L	.	2F\	-men	4B-\	tra-	2ee-\	tra-	.	2gg\	-men	.	.	.	.	4G\	.	2ee-\	f	2gg\	.	2gg\	f	[2eee-\)
.	.	8e-\	.	8g/	.	8g/	.	.	.	.	.	.	.	.	.	.	.	.	.	.	.	.	.	.	.	.	.	.	.
4E-\	.	8g\	.	8a-/	.	8a-/	.	.	.	4G\	.	.	.	.	.	.	.	.	.	.	4E-\	.	.	.	.	.	.	.	.
.	.	8e-\J	.	8g/J	.	8g/J	.	.	.	.	.	.	.	.	.	.	.	.	.	.	.	.	.	.	.	.	.	.	.
=86	=86	=86	=86	=86	=86	=86	=86	=86	=86	=86	=86	=86	=86	=86	=86	=86	=86	=86	=86	=86	=86	=86	=86	=86	=86	=86	=86	=86	=86
!	!	!	!	!LO:TX:t=P:problem:mixed beam	!	!LO:TX:t=P:problem:mixed beam	!	!	!	!	!	!	!	!	!	!	!	!	!	!	!	!	!	!	!	!	!	!	!
4B-\	.	8f\L	.	8f/L	.	8f/L	.	1B-	A-	4B-\	.	2ee-\	.	.	1ff	A-	1B-	.	1f	.	4B-\	.	2ee-\	.	1ff	.	1ff	.	2eee-\]
.	.	8e-\	.	8ee-\	.	8ee-\	.	.	.	.	.	.	.	.	.	.	.	.	.	.	.	.	.	.	.	.	.	.	.
4BB-/	.	8f\	.	8dd\	.	8dd\	.	.	.	4f\	.	.	.	.	.	.	.	.	.	.	4BB-/	.	.	.	.	.	.	.	.
.	.	8e-\J	.	8cc\J	.	8cc\J	.	.	.	.	.	.	.	.	.	.	.	.	.	.	.	.	.	.	.	.	.	.	.
!	!	!	!	!LO:TX:t=P:problem:mixed beam	!	!LO:TX:t=P:problem:mixed beam	!	!	!	!	!	!	!	!	!	!	!	!	!	!	!	!	!	!	!	!	!	!	!
4D/	.	8f\L	.	8dd\L	.	8dd\L	.	.	.	4d\	.	2dd\	.	.	.	.	.	.	.	.	4D/	.	2dd\	.	.	.	.	.	[2ddd\
.	.	8d\	.	8f/	.	8f/	.	.	.	.	.	.	.	.	.	.	.	.	.	.	.	.	.	.	.	.	.	.	.
4BB-/	.	8f\	.	8g/	.	8g/	.	.	.	4B-\	.	.	.	.	.	.	.	.	.	.	4BB-/	.	.	.	.	.	.	.	.
.	.	8d\J	.	8f/J	.	8f/J	.	.	.	.	.	.	.	.	.	.	.	.	.	.	.	.	.	.	.	.	.	.	.
!LO:LB:g=original	!	!	!	!LO:LB:g=original	!	!	!	!	!	!LO:LB:g=original	!	!	!	!	!	!	!	!	!	!	!	!	!	!	!	!	!	!	!
=87	=87	=87	=87	=87	=87	=87	=87	=87	=87	=87	=87	=87	=87	=87	=87	=87	=87	=87	=87	=87	=87	=87	=87	=87	=87	=87	=87	=87	=87
!	!	!	!	!LO:TX:t=P:problem:mixed beam	!	!LO:TX:t=P:problem:mixed beam	!	!	!	!	!	!	!	!	!	!	!	!	!	!	!	!	!	!	!	!	!	!	!
4C/	.	8e-\L	.	8e-/L	.	8e-/L	.	1c	.	4A-\	.	2dd\	.	.	1ee-	.	1e-	.	1e-	.	4C/	.	2dd\	.	1ee-	.	1ee-	.	2ddd\]
.	.	8d\	.	8dd\	.	8dd\	.	.	.	.	.	.	.	.	.	.	.	.	.	.	.	.	.	.	.	.	.	.	.
4c\	.	8e-\	.	8cc\	.	8cc\	.	.	.	4c\	.	.	.	.	.	.	.	.	.	.	4c\	.	.	.	.	.	.	.	.
.	.	8d\J	.	8bn\J	.	8bn\J	.	.	.	.	.	.	.	.	.	.	.	.	.	.	.	.	.	.	.	.	.	.	.
!	!	!	!	!LO:TX:t=P:problem:mixed beam	!	!LO:TX:t=P:problem:mixed beam	!	!	!	!	!	!	!	!	!	!	!	!	!	!	!	!	!	!	!	!	!	!	!
4e-\	.	8e-\L	.	8cc\L	.	8cc\L	.	.	.	4e-\	.	2cc\	.	.	.	.	.	.	.	.	4e-\	.	2cc\	.	.	.	.	.	[2ccc\
.	.	8c\	.	8e-/	.	8e-/	.	.	.	.	.	.	.	.	.	.	.	.	.	.	.	.	.	.	.	.	.	.	.
4c\	.	8e-\	.	8f/	.	8f/	.	.	.	4c\	.	.	.	.	.	.	.	.	.	.	4c\	.	.	.	.	.	.	.	.
.	.	8c\J	.	8e-/J	.	8e-/J	.	.	.	.	.	.	.	.	.	.	.	.	.	.	.	.	.	.	.	.	.	.	.
!	!	!LO:LB:g=original	!	!	!	!	!	!	!	!	!	!	!	!	!	!	!	!	!	!	!	!	!	!	!	!	!	!	!
=88	=88	=88	=88	=88	=88	=88	=88	=88	=88	=88	=88	=88	=88	=88	=88	=88	=88	=88	=88	=88	=88	=88	=88	=88	=88	=88	=88	=88	=88
!	!	!	!	!LO:TX:t=P:problem:mixed beam	!	!LO:TX:t=P:problem:mixed beam	!	!	!	!	!	!	!	!	!	!	!	!	!	!	!	!	!	!	!	!	!	!	!
4G\	.	8d\L	.	8d/L	.	8d/L	.	1G	.	4G\	.	2cc\	.	.	1dd	.	1G	.	1g	.	4G\	.	2cc\	.	1dd	.	1dd	.	2ccc\]
.	.	8c\	.	8cc\	.	8cc\	.	.	.	.	.	.	.	.	.	.	.	.	.	.	.	.	.	.	.	.	.	.	.
4GG/	.	8d\	.	8b-\	.	8b-X\	.	.	.	4B-\	.	.	.	.	.	.	.	.	.	.	4GG/	.	.	.	.	.	.	.	.
.	.	8c\J	.	8an\J	.	8an\J	.	.	.	.	.	.	.	.	.	.	.	.	.	.	.	.	.	.	.	.	.	.	.
4BB-/	.	8d\L	.	8b-X/L	.	8b-X/L	.	.	.	4d\	.	2b-\	.	.	.	.	.	.	.	.	4BB-/	.	2b-\	.	.	.	.	.	[2bb-\
.	.	8B-\	.	8d/	.	8d/	.	.	.	.	.	.	.	.	.	.	.	.	.	.	.	.	.	.	.	.	.	.	.
4GG/	.	8d\	.	8e-/	.	8e-/	.	.	.	4B-\	.	.	.	.	.	.	.	.	.	.	4GG/	.	.	.	.	.	.	.	.
.	.	8B-\J	.	8d/J	.	8d/J	.	.	.	.	.	.	.	.	.	.	.	.	.	.	.	.	.	.	.	.	.	.	.
=89	=89	=89	=89	=89	=89	=89	=89	=89	=89	=89	=89	=89	=89	=89	=89	=89	=89	=89	=89	=89	=89	=89	=89	=89	=89	=89	=89	=89	=89
!	!	!	!	!LO:TX:t=P:problem:mixed beam	!	!LO:TX:t=P:problem:mixed beam	!	!	!	!	!	!	!	!	!	!	!LO:TX:a:t=1	!	!LO:TX:a:t=1	!	!	!	!	!	!	!	!	!	!
4AA-/	.	8c/L	.	8c/L	.	8c/L	.	1A-	.	4F/	.	2b-\	.	.	1cc	.	1r	.	1r	.	4AA-/	.	2b-\	.	1cc	.	1cc	.	2bb-\]
.	.	8B-/	.	8cc\	.	8b-\	.	.	.	.	.	.	.	.	.	.	.	.	.	.	.	.	.	.	.	.	.	.	.
4A-\	.	8c/	.	8b-X\	.	8a-X\	.	.	.	4A-/	.	.	.	.	.	.	.	.	.	.	4A-\	.	.	.	.	.	.	.	.
.	.	8B-/J	.	8g\J	.	8g\J	.	.	.	.	.	.	.	.	.	.	.	.	.	.	.	.	.	.	.	.	.	.	.
4c\	.	8c/L	.	8a-/L	.	8a-/L	.	.	.	4c\	.	2a-\	.	.	.	.	.	.	.	.	4c\	.	2a-\	.	.	.	.	.	[2aa-\
.	.	8A-/	.	8c/	.	8c/	.	.	.	.	.	.	.	.	.	.	.	.	.	.	.	.	.	.	.	.	.	.	.
4A-\	.	8c/	.	8d/	.	8d/	.	.	.	4A-\/	.	.	.	.	.	.	.	.	.	.	4A-\	.	.	.	.	.	.	.	.
.	.	8A-/J	.	8c/J	.	8c/J	.	.	.	.	.	.	.	.	.	.	.	.	.	.	.	.	.	.	.	.	.	.	.
!	!	!	!	!	!	!LO:LB:g=original	!	!	!	!	!	!	!	!	!	!	!LO:LB:g=original	!	!	!	!LO:LB:g=original	!	!LO:LB:g=original	!	!	!	!	!	!
=90	=90	=90	=90	=90	=90	=90	=90	=90	=90	=90	=90	=90	=90	=90	=90	=90	=90	=90	=90	=90	=90	=90	=90	=90	=90	=90	=90	=90	=90
4E-\	.	8b-\L	.	8B-/L	.	8B-/L	.	1E-	.	4E-/	.	2a-\	.	.	1b-	.	1e-	.	1e-	.	4E-\	.	2a-/	.	1b-	.	1bb-	.	2aa-\]
.	.	8a-\	.	8a-/	.	8a-/	.	.	.	.	.	.	.	.	.	.	.	.	.	.	.	.	.	.	.	.	.	.	.
4E-\	.	8b-\	.	8g/	.	8g/	.	.	.	4G/	.	.	.	.	.	.	.	.	.	.	4E-\	.	.	.	.	.	.	.	.
.	.	8a-\J	.	8f/J	.	8f/J	.	.	.	.	.	.	.	.	.	.	.	.	.	.	.	.	.	.	.	.	.	.	.
4G\	.	8b-\L	.	8g/L	.	8g/L	.	.	.	4B-\	.	2g\	-ci	.	.	.	.	.	.	.	4G\	.	2g/	.	.	.	.	.	[2gg\
.	.	8g\	.	8B-/	.	8B-/	.	.	.	.	.	.	.	.	.	.	.	.	.	.	.	.	.	.	.	.	.	.	.
4E-\	.	8b-\	.	8c/	.	8c/	.	.	.	4G/	.	.	.	.	.	.	.	.	.	.	4E-\	.	.	.	.	.	.	.	.
.	.	8g\J	.	8B-/J	.	8B-/J	.	.	.	.	.	.	.	.	.	.	.	.	.	.	.	.	.	.	.	.	.	.	.
!	!	!	!	!	!	!	!	!	!	!	!	!LO:LB:g=original	!	!	!	!	!	!	!	!	!	!	!	!	!	!	!	!	!
=91	=91	=91	=91	=91	=91	=91	=91	=91	=91	=91	=91	=91	=91	=91	=91	=91	=91	=91	=91	=91	=91	=91	=91	=91	=91	=91	=91	=91	=91
4B-\	.	8a-\L	.	8A-/L	.	8A-/L	.	1F	.	4D/	.	2g\	A-	.	1a-	.	1f	.	1f	.	4B-\	.	2g/	.	1a-	.	1aa-	.	2gg\]
.	.	8g\	.	8g/	.	8g/	.	.	.	.	.	.	.	.	.	.	.	.	.	.	.	.	.	.	.	.	.	.	.
4BB-/	.	8a-\	.	8f/	.	8f/	.	.	.	4F/	.	.	.	.	.	.	.	.	.	.	4BB-/	.	.	.	.	.	.	.	.
.	.	8g\J	.	8e-/J	.	8e-/J	.	.	.	.	.	.	.	.	.	.	.	.	.	.	.	.	.	.	.	.	.	.	.
4D/	.	8a-\L	.	8f/L	.	8f/L	.	.	.	4A-/	.	2f\	-men	.	.	.	.	.	.	.	4D/	.	2f/	.	.	.	.	.	[2ff\
.	.	8f\	.	8A-/	.	8A-/	.	.	.	.	.	.	.	.	.	.	.	.	.	.	.	.	.	.	.	.	.	.	.
4BB-/	.	8a-\	.	8B-/	.	8B-/	.	.	.	4F/	.	.	.	.	.	.	.	.	.	.	4BB-/	.	.	.	.	.	.	.	.
.	.	8f\J	.	8A-/J	.	8A-/J	.	.	.	.	.	.	.	.	.	.	.	.	.	.	.	.	.	.	.	.	.	.	.
=92	=92	=92	=92	=92	=92	=92	=92	=92	=92	=92	=92	=92	=92	=92	=92	=92	=92	=92	=92	=92	=92	=92	=92	=92	=92	=92	=92	=92	=92
!	!	!	!	!LO:TX:t=P:problem:mixed beam	!	!LO:TX:t=P:problem:mixed beam	!	!	!	!	!	!	!	!	!	!	!	!	!	!	!	!	!	!	!	!	!	!	!
4EE-/	.	8g\L	.	8G/L	.	8G/L	.	1E-	.	4E-/	.	2f\	a-	.	1g	-men	1e-	.	1g	.	4EE-/	.	2f/	.	1g	.	1gg	.	2ff\]
.	.	8f\	.	8ff\	.	8ff\	.	.	.	.	.	.	.	.	.	.	.	.	.	.	.	.	.	.	.	.	.	.	.
4E-\	.	8g\	.	8ee-\	.	8ee-\	.	.	.	4c\	.	.	.	.	.	.	.	.	.	.	4E-\	.	.	.	.	.	.	.	.
.	.	8f\J	.	8dd\J	.	8dd\J	.	.	.	.	.	.	.	.	.	.	.	.	.	.	.	.	.	.	.	.	.	.	.
!	!	!	!	!LO:TX:t=P:problem:mixed beam	!	!LO:TX:t=P:problem:mixed beam	!	!	!	!	!	!	!	!	!	!	!	!	!	!	!	!	!	!	!	!	!	!	!
4G\	.	8g\L	.	8ee-\L	.	8ee-\L	.	.	.	4e-\	.	2e-\	.	.	.	.	.	.	.	.	4G\	.	2e-/	.	.	.	.	.	[2ee-\
.	.	8e-\	.	8g/	.	8g/	.	.	.	.	.	.	.	.	.	.	.	.	.	.	.	.	.	.	.	.	.	.	.
4E-\	.	8g\	.	8a-/	.	8a-/	.	.	.	4c\	.	.	.	.	.	.	.	.	.	.	4E-\	.	.	.	.	.	.	.	.
.	.	8e-\J	.	8g/J	.	8g/J	.	.	.	.	.	.	.	.	.	.	.	.	.	.	.	.	.	.	.	.	.	.	.
=93	=93	=93	=93	=93	=93	=93	=93	=93	=93	=93	=93	=93	=93	=93	=93	=93	=93	=93	=93	=93	=93	=93	=93	=93	=93	=93	=93	=93	=93
!	!	!	!	!LO:TX:t=P:problem:mixed beam	!	!LO:TX:t=P:problem:mixed beam	!	!	!	!	!	!	!	!	!	!	!	!	!	!	!	!	!	!	!	!	!	!	!
4A-\	.	8f\L	.	8f/L	.	8f/L	.	1BB-	-men	4D/	.	2e-\	.	.	1f	A-	1B-	.	1f	.	4A-\	.	2e-/	.	1f	.	1ff	.	2ee-\]
.	.	8e-\	.	8ee-\	.	(8ee-\	.	.	.	.	.	.	.	.	.	.	.	.	.	.	.	.	.	.	.	.	.	.	.
4F\	.	8f\	.	8dd\	.	8dd\	.	.	.	4B-\	.	.	.	.	.	.	.	.	.	.	4F\	.	.	.	.	.	.	.	.
.	.	8e-\J	.	8cc\J	.	8cc\J)	.	.	.	.	.	.	.	.	.	.	.	.	.	.	.	.	.	.	.	.	.	.	.
!	!	!	!	!LO:TX:t=P:problem:mixed beam	!	!	!	!	!	!	!	!	!	!	!	!	!	!	!	!	!	!	!	!	!	!	!	!	!
4B-\	.	8f\L	.	8dd\L	.	(8dd\L	.	.	.	4d\	.	2d\	.	.	.	.	.	.	.	.	4B-\	.	2d/	.	.	.	.	.	2dd\
.	.	8d\	.	8f/	.	8cc\	.	.	.	.	.	.	.	.	.	.	.	.	.	.	.	.	.	.	.	.	.	.	.
4BB-/	.	8f\	.	8g/	.	8b-\	.	.	.	4B-\	.	.	.	.	.	.	.	.	.	.	4BB-/	.	.	.	.	.	.	.	.
.	.	8d\J	.	8f/J	.	8a-\J)	.	.	.	.	.	.	.	.	.	.	.	.	.	.	.	.	.	.	.	.	.	.	.
!	!	!	!	!LO:LB:g=original	!	!	!	!	!	!LO:LB:g=original	!	!	!	!	!	!	!	!	!	!	!	!	!	!	!	!	!	!	!
=94	=94	=94	=94	=94	=94	=94	=94	=94	=94	=94	=94	=94	=94	=94	=94	=94	=94	=94	=94	=94	=94	=94	=94	=94	=94	=94	=94	=94	=94
2E-\	.	2B-/	.	2e-/	.	2g/	.	2E-\	wiecz-	2B-\	ci	2e-\	.	.	2g\	.	2e-\	.	2g\	.	2E-\	.	2e-/	.	2g/	.	2gg\	.	2ee-\
!	!	!	!	!	!	!	!	!	!	!	!	!	!	!	!	!	!	!	!	!	!	!	!	!	!	!	!	!	!LO:LB:g=original
4G\	.	8e-\	.	8g/L	.	8b-/L	.	2G\	-ney	2e-\	A-	2g\	.	.	2b-\	.	2r	.	2r	.	4G\	.	2b-\	.	2ee-\	.	2gg\	.	2bb-\
.	.	4e-\	.	8G/	.	8e-/	.	.	.	.	.	.	.	.	.	.	.	.	.	.	.	.	.	.	.	.	.	.	.
4E-\	.	.	.	8g/	.	8b-/	.	.	.	.	.	.	.	.	.	.	.	.	.	.	4E-\	.	.	.	.	.	.	.	.
.	.	8e-\	.	8G/J	.	8e-/J	.	.	.	.	.	.	.	.	.	.	.	.	.	.	.	.	.	.	.	.	.	.	.
=95	=95	=95	=95	=95	=95	=95	=95	=95	=95	=95	=95	=95	=95	=95	=95	=95	=95	=95	=95	=95	=95	=95	=95	=95	=95	=95	=95	=95	=95
!	!	!	!	!	!	!	!	!	!	!	!	!	!	!	!	!	!LO:TX:a:t=1	!	!LO:TX:a:t=1	!	!	!	!	!	!	!	!	!	!
4A-\	.	8e-\	.	8a-/L	.	8cc/L	.	2A-\	chwa-	2e-\	.	2a-\	.	.	2cc\	.	1r	.	1r	.	4A-\	.	2cc\	.	1ee-	.	2aa-\	.	2ccc\
.	.	4e-\	.	8A-/	.	8e-/	.	.	.	.	.	.	.	.	.	.	.	.	.	.	.	.	.	.	.	.	.	.	.
4E-\	.	.	.	8a-/	.	8cc/	.	.	.	.	.	.	.	.	.	.	.	.	.	.	4E-\	.	.	.	.	.	.	.	.
.	.	4e-\	.	8A-/J	.	8e-/J	.	.	.	.	.	.	.	.	.	.	.	.	.	.	.	.	.	.	.	.	.	.	.
4G\	.	.	.	8g/L	.	8b-/L	.	2G\	-ły	2e-\	.	2g\	.	.	2b-\	.	.	.	.	.	4G\	.	2b-\	.	.	.	2gg\	.	2bb-\
.	.	4e-\	.	8G/	.	8e-/	.	.	.	.	.	.	.	.	.	.	.	.	.	.	.	.	.	.	.	.	.	.	.
4E-\	.	.	.	8g/	.	8b-/	.	.	.	.	.	.	.	.	.	.	.	.	.	.	4E-\	.	.	.	.	.	.	.	.
.	.	8e-\	.	8G/J	.	8e-/J	.	.	.	.	.	.	.	.	.	.	.	.	.	.	.	.	.	.	.	.	.	.	.
!	!	!LO:LB:g=original	!	!	!	!	!	!LO:LB:g=original	!	!	!	!	!	!	!	!	!	!	!	!	!	!	!	!	!	!	!	!	!
=96	=96	=96	=96	=96	=96	=96	=96	=96	=96	=96	=96	=96	=96	=96	=96	=96	=96	=96	=96	=96	=96	=96	=96	=96	=96	=96	=96	=96	=96
2A-\	.	2e-\	.	2a-/	.	2cc\	.	2A-\	nie	2e-\	.	2a-\	.	.	2cc\	.	2r	.	2r	.	2A-\	.	2cc\	.	2ee-\	.	2aa-\	.	2ccc\
4E-\	.	8b-\L	.	8g/L	.	8ee-|\L	.	2E-\	tra-	2B-\	.	2g\	.	.	2ee-\	-men	2e-\	.	2g\	.	4E-\	.	2g/	.	2ee-\	.	2gg\	.	2eee-\
.	.	8b-\	.	8g/	.	8ee-|\	.	.	.	.	.	.	.	.	.	.	.	.	.	.	.	.	.	.	.	.	.	.	.
4E-\	.	8b-\	.	8g/	.	8ee-|\	.	.	.	.	.	.	.	.	.	.	.	.	.	.	4E-\	.	.	.	.	.	.	.	.
.	.	8b-\J	.	8g/J	.	8ee-|\J	.	.	.	.	.	.	.	.	.	.	.	.	.	.	.	.	.	.	.	.	.	.	.
=97	=97	=97	=97	=97	=97	=97	=97	=97	=97	=97	=97	=97	=97	=97	=97	=97	=97	=97	=97	=97	=97	=97	=97	=97	=97	=97	=97	=97	=97
*	*	*tremolo	*	*tremolo	*	*tremolo	*	*	*	*	*	*	*	*	*	*	*	*	*	*	*	*	*	*	*	*	*	*	*
4B-\	.	8a-\L	.	8f/L	.	8ee-\L	.	2B-\	-ci	2B-\	.	2f\	.	.	2ee-\	a-	1B-	.	1f	.	4B-\	.	1f	.	2ee-\	.	2gg\	.	2eee-\
.	.	8a-\	.	8f/	.	8ee-\	.	.	.	.	.	.	.	.	.	.	.	.	.	.	.	.	.	.	.	.	.	.	.
4B-\	.	8a-\	.	8f/	.	8ee-\	.	.	.	.	.	.	.	.	.	.	.	.	.	.	4B-\	.	.	.	.	.	.	.	.
.	.	8a-\J	.	8f/J	.	8ee-\J	.	.	.	.	.	.	.	.	.	.	.	.	.	.	.	.	.	.	.	.	.	.	.
!	!	!	!	!	!	!	!	!	!	!	!	!	!	!	!	!	!	!	!	!	!LO:LB:g=original	!	!	!	!	!	!	!	!
4BB-/	.	8a-\L	.	8f/L	.	8dd\L	.	2BB-/	A-	2A-\	.	2f\	.	.	2dd\	.	.	.	.	.	4BB-/	.	.	.	2dd\	.	2ff\	.	2ddd\
.	.	8a-\	.	8f/	.	8dd\	.	.	.	.	.	.	.	.	.	.	.	.	.	.	.	.	.	.	.	.	.	.	.
4BB-/	.	8a-\	.	8f/	.	8dd\	.	.	.	.	.	.	.	.	.	.	.	.	.	.	4BB-/	.	.	.	.	.	.	.	.
.	.	8a-\J	.	8f/J	.	8dd\J	.	.	.	.	.	.	.	.	.	.	.	.	.	.	.	.	.	.	.	.	.	.	.
*	*	*Xtremolo	*	*	*	*	*	*	*	*	*	*	*	*	*	*	*	*	*	*	*	*	*	*	*	*	*	*	*
!	!	!	!	!	!	!LO:LB:g=original	!	!	!	!	!	!	!	!	!	!	!	!	!	!	!	!	!	!	!LO:LB:g=original	!	!	!	!
=98	=98	=98	=98	=98	=98	=98	=98	=98	=98	=98	=98	=98	=98	=98	=98	=98	=98	=98	=98	=98	=98	=98	=98	=98	=98	=98	=98	=98	=98
2E-\	.	8b-\L	.	8g/L	.	8ee-\L	.	2E-\	-men	2B-\	-men	2g\	-men	.	2ee-\	-men	2e-\	.	2g\	.	2E-\	.	2g/	.	2ee-\	.	2gg\	.	2eee-\
.	.	8b-\	.	8g/	.	8ee-\	.	.	.	.	.	.	.	.	.	.	.	.	.	.	.	.	.	.	.	.	.	.	.
.	.	8b-\	.	8g/	.	8ee-\	.	.	.	.	.	.	.	.	.	.	.	.	.	.	.	.	.	.	.	.	.	.	.
.	.	8b-\J	.	8g/J	.	8ee-\J	.	.	.	.	.	.	.	.	.	.	.	.	.	.	.	.	.	.	.	.	.	.	.
*	*	*tremolo	*	*	*	*	*	*	*	*	*	*	*	*	*	*	*	*	*	*	*	*	*	*	*	*	*	*	*
2E-\	.	8b-\L	.	8ee-\L	.	8gg\L	.	2r	.	2r	.	2r	.	.	2r	.	2r	.	2r	.	2E-\	.	2ee-\	.	2gg\	.	2r	.	2r
.	.	8b-\	.	8ee-\	.	8gg\	.	.	.	.	.	.	.	.	.	.	.	.	.	.	.	.	.	.	.	.	.	.	.
.	.	8b-\	.	8ee-\	.	8gg\	.	.	.	.	.	.	.	.	.	.	.	.	.	.	.	.	.	.	.	.	.	.	.
.	.	8b-\J	.	8ee-\J	.	8gg\J	.	.	.	.	.	.	.	.	.	.	.	.	.	.	.	.	.	.	.	.	.	.	.
!LO:LB:g=original	!	!	!	!	!	!	!	!	!	!	!	!LO:LB:g=original	!	!	!LO:LB:g=original	!	!	!	!	!	!	!	!	!	!	!	!	!	!
=99	=99	=99	=99	=99	=99	=99	=99	=99	=99	=99	=99	=99	=99	=99	=99	=99	=99	=99	=99	=99	=99	=99	=99	=99	=99	=99	=99	=99	=99
2BB-/	.	8b-\L	.	8ee-\L	.	8ff\L	.	2BB-/	A-	2A-\	A-	2f\	A-	.	2ee-\	A-	2B-/	.	2f\	.	2BB-/	.	2ee-\	.	2gg\	.	2ff\	.	2eee-\
.	.	8b-\	.	8ee-\	.	8ff\	.	.	.	.	.	.	.	.	.	.	.	.	.	.	.	.	.	.	.	.	.	.	.
.	.	8b-\	.	8ee-\	.	8ff\	.	.	.	.	.	.	.	.	.	.	.	.	.	.	.	.	.	.	.	.	.	.	.
.	.	8b-\J	.	8ee-\J	.	8ff\J	.	.	.	.	.	.	.	.	.	.	.	.	.	.	.	.	.	.	.	.	.	.	.
2B-\	.	8b-\L	.	8dd\L	.	8bb-\L	.	2BB-/	.	2A-\	.	2f\	.	.	2dd\	.	4B-/	.	4f\	.	2B-\	.	2dd\	.	2bb-\	.	2ff\	.	2ddd\
.	.	8b-\	.	8dd\	.	8bb-\	.	.	.	.	.	.	.	.	.	.	.	.	.	.	.	.	.	.	.	.	.	.	.
.	.	8b-\	.	8dd\	.	8bb-\	.	.	.	.	.	.	.	.	.	.	4B-/	.	4f\	.	.	.	.	.	.	.	.	.	.
.	.	8b-\J	.	8dd\J	.	8bb-\J	.	.	.	.	.	.	.	.	.	.	.	.	.	.	.	.	.	.	.	.	.	.	.
*	*	*Xtremolo	*	*Xtremolo	*	*Xtremolo	*	*	*	*	*	*	*	*	*	*	*	*	*	*	*	*	*	*	*	*	*	*	*
=100	=100	=100	=100	=100	=100	=100	=100	=100	=100	=100	=100	=100	=100	=100	=100	=100	=100	=100	=100	=100	=100	=100	=100	=100	=100	=100	=100	=100	=100
2E-\	.	2b-\	.	2ee-\	.	2gg\	.	2E-\	-men	2B-\	-men	2g\	-men	.	2ee-\	-men.	2G/	.	2e-\	.	2E-\	.	2ee-\	.	2gg\	.	2gg\	.	2eee-\
4E-\	.	4B-/	.	4e- 4G/	.	4e- 4G/	.	2r	.	2r	.	2r	.	.	2r	.	4E-/	.	4B-/	.	4E-\	.	4e-/	.	4g/	.	4gg\	.	4eee-\
4E-\	.	4B-/	.	4e- 4G/	.	4e- 4G/	.	.	.	.	.	.	.	.	.	.	4E-/	.	4B-/	.	4E-\	.	4e-/	.	4g/	.	4gg\	.	4eee-\
=101	=101	=101	=101	=101	=101	=101	=101	=101	=101	=101	=101	=101	=101	=101	=101	=101	=101	=101	=101	=101	=101	=101	=101	=101	=101	=101	=101	=101	=101
!	!	!	!	!	!	!	!	!	!	!	!	!LO:TX:b:i:t=Finis Coronat Opus	!	!	!	!	!	!	!	!	!	!	!	!	!	!	!	!	!
2E-\	.	2B-/	.	2e- 2G/	.	2e- 2G/	.	1r	.	1r	.	1r	.	.	1r	.	2E-/	.	2B-/	.	2E-\	.	2e-/	.	2g/	.	2gg\	.	2eee-\
!LO:TX:b:i:t=Finiſ\nDescripsit ńiedopytalski Sokoł:rj	!	!	!	!LO:TX:b:i:t=Finiſ\nDe Scripsit Michael Zabłoky.:rj	!	!LO:TX:b:i:t=Finiſ.	!	!LO:TX:b:i:t=De Srcri&colon; Mar&colon; Mach&colon;:rj	!	!LO:TX:b:i:t=De Scri&colon; Mar&colon; Mach.:rj	!	!LO:TX:b:i:t=per Scripsit Martinus Mach&colon;:rj	!	!	!	!	!LO:TX:b:i:t=De Scripsit Franciscus Zawadzki:rj	!	!LO:TX:b:i:t=Descripsit Franci&colon; Zawadzki:rj	!	!LO:TX:b:i:t=Finiſ. De Scripsit Casimi&colon; Nowakiewicz.:rj	!	!LO:TX:b:i:t=De Scripsit Martinus Kuligows:rj	!	!LO:TX:b:i:t=DeScripsit Mar&colon; Kuligowski:rj	!	!	!	!
2r	.	2r	.	2r	.	2r	.	.	.	.	.	.	.	.	.	.	2r	.	2r	.	2r	.	2r	.	2r	.	2r	.	2r
==	==	==	==	==	==	==	==	==	==	==	==	==	==	==	==	==	==	==	==	==	==	==	==	==	==	==	==	==	==
*-	*-	*-	*-	*-	*-	*-	*-	*-	*-	*-	*-	*-	*-	*-	*-	*-	*-	*-	*-	*-	*-	*-	*-	*-	*-	*-	*-	*-	*-
!!!system-decoration: [(g1)][(g2)][(g3)][(g4)]<s15>
!!!RDF**kern: | = vertical stroke
!!!ENC: Tomasz Grochalski
!!!END: 2020-11-10
!!!ENC: Andrzej Kubiczek
!!!END: 2022-04-30
